!!!!SEGMENT: pl-wtm--r-1540--008_stefani-jozef--missa-agnus-dei.krn
!!!cenid: 18xx:1776
!!!COM: Stefani, Józef
!!!COM-rismID: pe30024097
!!!CDT: 1800/04/16-1876/03/19
!!!CNT: Polish
!!!OPR: Missa
!!!OTL: Agnus Dei
!!!OMV: 008
!!!PDT:
!!!AGN: Sacred; Mass
!!!SMS-siglum: PL-Wtm
!!!SMS-shelfmark: R 1540
!!!SMS-shelfwork: 001-008 M
!!!SMS-variant:
!!!SMS-altvar:
!!!NIFC-rismSourceID: 1001120486
!!!NIFC-islandoraID: pl-wtm:26331
!!!URL-pdf-islandora: https://repozytorium.nifc.pl/islandora/object/pl-wtm%3A26331/datastream/PDF/view
!!!URL-scan: https://polish.musicsources.pl/pl/lokalizacje/galeria/rekopisy/6341 @EN{Scan on Polish Music Sources Website} @PL{Skany w portalu Dziedzictwo Muzyki Polskiej w otwartym dostępie}
!!!ONB-nifc: UWAGA: części Mszy: 1. Kyrie, 2. Gloria, 3. Graduale, 4. Credo, 5. Offertorium, 6. Sanctus, 7. Benedictus, 8. Agnus Dei. Na końcu rękopisu partie puzonów, trąbek i kotłów
!!!AIN: 1 clars 1 cor 2 empty 1 fagot 1 flt 1 oboe 2 organ 2 soprn 2 tenor 1 timpa 1 tromp 1 tromt 1 viola 2 violn
!!!key:
**kern	**dynam	**kern	**kern	**dynam	**kern	**kern	**kern	**text	**dynam	**kern	**text	**kern	**text	**dynam	**kern	**text	**dynam	**kern	**text	**dynam	**kern	**dynam	**kern	**dynam	**kern	**kern	**dynam	**kern	**dynam	**kern	**dynam	**kern	**dynam	**kern	**dynam	**kern	**dynam
*part19	*part19	*part18	*part17	*part17	*part16	*part15	*part14	*part14	*part14	*part13	*part13	*part12	*part12	*part12	*part11	*part11	*part11	*part10	*part10	*part10	*part9	*part9	*part8	*part8	*part7	*part6	*part6	*part5	*part5	*part4	*part4	*part3	*part3	*part2	*part2	*part1	*part1
*staff19	*	*staff18	*staff17	*	*staff16	*staff15	*staff14	*staff14	*	*staff13	*staff13	*staff12	*staff12	*	*staff11	*staff11	*	*staff10	*staff10	*	*staff9	*	*staff8	*	*staff7	*staff6	*	*staff5	*	*staff4	*	*staff3	*	*staff2	*	*staff1	*
*Itimpa	*	*Itromt	*Itromp	*	*Iorgan	*Iorgan	*Iempty	*	*	*Itenor	*	*Itenor	*	*	*Isoprn	*	*	*Isoprn	*	*	*Iempty	*	*Iviola	*	*Ivioln	*Ivioln	*	*Ifagot	*	*Icor	*	*Iclars	*	*Ioboe	*	*Iflt	*
*I"Timpani C. G.	*	*I"Trombone	*I"Trombe in C	*	*I"Organo	*I"Organo	*I"Baſso	*	*	*I"Tenori	*	*I"Tenori	*	*	*I"2do. Soprano	*	*	*I"1o. Soprano	*	*	*I"Baſsi	*	*I"Viole	*	*I"Violini	*I"Violini	*	*I"Fagoto	*	*I"Corni in C	*	*I"Clarinetti in C	*	*I"Oboe	*	*I"Flauto	*
*I'timp in C and G	*	*I'trb	*I'tr in C	*	*I'org	*I'org	*I'B	*	*	*I'T 2	*	*I'T 1	*	*	*I'S 2	*	*	*I'S 1	*	*	*I'vlc	*	*I'vla	*	*I'vl 2	*I'vl 1	*	*I'fag	*	*I'cor in C	*	*I'cl in C	*	*I'ob	*	*I'fl	*
*clefF4	*	*clefF4	*clefG2	*	*clefF4	*clefG2	*clefF4	*	*	*clefC4	*	*clefC4	*	*	*clefG2	*	*	*clefG2	*	*	*clefF4	*	*clefC3	*	*clefG2	*clefG2	*	*clefF4	*	*clefG2	*	*clefG2	*	*clefG2	*	*clefG2	*
*	*	*	*	*	*	*	*	*	*	*	*	*	*	*	*	*	*	*	*	*	*	*	*	*	*	*	*	*	*	*Trd0c0	*	*	*	*	*	*	*
*k[]	*	*k[b-e-]	*k[]	*	*k[b-e-]	*k[b-e-]	*k[b-e-]	*	*	*k[b-e-]	*	*k[b-e-]	*	*	*k[b-e-]	*	*	*k[b-e-]	*	*	*k[b-e-]	*	*k[b-e-]	*	*k[b-e-]	*k[b-e-]	*	*k[b-e-]	*	*k[]	*	*k[b-e-]	*	*k[b-e-]	*	*k[b-e-]	*
*G:	*	*G:	*G:	*	*G:	*G:	*G:	*	*	*G:	*	*G:	*	*	*G:	*	*	*G:	*	*	*G:	*	*G:	*	*G:	*G:	*	*G:	*	*G:	*	*G:	*	*G:	*	*G:	*
*M3/4	*	*M3/4	*M3/4	*	*M3/4	*M3/4	*M3/4	*	*	*M3/4	*	*M3/4	*	*	*M3/4	*	*	*M3/4	*	*	*M3/4	*	*M3/4	*	*M3/4	*M3/4	*	*M3/4	*	*M3/4	*	*M3/4	*	*M3/4	*	*M3/4	*
=1	=1	=1	=1	=1	=1	=1	=1	=1	=1	=1	=1	=1	=1	=1	=1	=1	=1	=1	=1	=1	=1	=1	=1	=1	=1	=1	=1	=1	=1	=1	=1	=1	=1	=1	=1	=1	=1
*2\right	*	*2\right	*2\right	*	*2\right	*2\right	*2\right	*	*	*2\right	*	*2\right	*	*	*2\right	*	*	*2\right	*	*	*2\right	*	*2\right	*	*2\right	*2\right	*	*2\right	*	*2\right	*	*2\right	*	*2\right	*	*2\right	*
!	!	!	!LO:TX:t=P:problem=4\left or middle or right&colon; global	!	!	!	!	!	!	!	!	!	!	!	!	!	!	!	!	!	!	!	!	!	!	!	!	!	!	!	!	!	!	!	!	!	!
!	!	!	!LO:TX:t=P:problem=4/, 8/middle or right&colon; global	!	!	!	!	!	!	!	!	!	!	!	!	!	!	!	!	!	!	!	!	!	!	!	!	!	!	!	!	!	!	!	!	!	!
!	!	!	!LO:TX:t=P:problem=8\, 16\middle or right&colon; global	!	!	!	!	!	!	!	!	!	!	!	!	!	!	!	!	!	!	!	!	!	!	!	!	!	!	!	!	!	!	!	!	!	!
!	!	!LO:TX:t=P:problem=16\middle&colon; global	!	!	!	!	!	!	!	!	!	!	!	!	!	!	!	!	!	!	!	!	!LO:TX:t=P:problem=8\, 16\middle or right&colon; global	!	!	!LO:TX:t=P:problem=16/left or middle or right&colon; global	!	!	!	!LO:TX:a:t=P:problem=16\middle&colon;global	!	!LO:TX:t=P:problem=16\/middle&colon; global	!	!	!	!LO:TX:t=P:problem=16\middle or right&colon; global	!
!	!	!LO:TX:t=P:problem=4/middle or right&colon; global	!LO:TX:b:t=29.	!	!LO:TX:t=P:problem=4/, 8/middle or right&colon; global	!LO:TX:t=P:problem=4/, 8/, 16/middle or right&colon; global	!	!	!	!	!	!	!	!	!	!	!	!	!	!	!LO:TX:t=P:problem=4/, 8/middle or right&colon; global	!	!LO:TX:t=P:problem=4/, 8/, 16/middle or right&colon; global	!	!	!LO:TX:t=P:problem=4/, 8/right or middle&colon; global	!	!LO:TX:t=P:problem=4/, 8/middle or right&colon; global	!	!LO:TX:t=P:problem=4/, 8/middle or right&colon; global	!	!LO:TX:t=P:problem=4/, 8/middle or right&colon; global	!	!	!	!LO:TX:t=P:problem=4\, 8\left or middle or right&colon; global	!
!	!	!LO:TX:t=P:problem=4\, 8\middle or right&colon; global	!LO:TX:i:a:t=Agnus Dei	!	!LO:TX:t=P:problem=4\, 8\, 16\middle or right&colon; global	!LO:TX:t=P:problem=4\, 8\left or middle or right&colon; global	!LO:TX:t=P:problem=4\/, 8\/, 16\/middle or right&colon; global	!	!	!LO:TX:t=P:problem=4\/, 8\/, 16\/middle or right&colon; global	!	!LO:TX:t=P:problem=4\/, 8\/, 16\/middle or right&colon; global	!	!	!LO:TX:t=P:problem=16/left or middle or right&colon; global	!	!	!LO:TX:t=P:problem=4\/, 8\/, 16\/middle or right&colon; global	!	!	!LO:TX:t=P:problem=4\, 8\, 16\middle or right&colon; global	!	!LO:TX:t=P:problem=4\left or middle or right&colon; global	!	!LO:TX:t=P:problem=4/, 8/, 16/middle or right&colon; global	!LO:TX:t=P:problem=4\, 8\, 16\middle or right&colon; global	!	!LO:TX:t=P:problem=4\, 8\, 16\middle or right&colon; global	!	!LO:TX:t=P:problem=4\, 8\left or middle or right&colon; global	!	!LO:TX:t=P:problem=4\, 8\left or middle or right&colon; global	!	!LO:TX:t=P:problem=4\, 8\, 16\middle or right&colon; global	!	!	!
!LO:TX:t=P:problem=4/, 8/middle or right&colon; global	!	!	!LO:TX:i:a:t=Adagio.	!	!LO:TX:t=P:2\,16/:problem=right&colon; global	!LO:TX:t=P:problem=2\, 16\right&colon; global	!	!	!	!	!	!	!	!LO:DY:a	!LO:TX:t=P:problem=4/, 8/middle or right&colon; global	!	!	!	!	!	!LO:TX:t=P:problem=2\,16/right&colon; global	!	!	!	!LO:TX:t=P:problem=2\, 4\right&colon; global	!	!	!	!	!	!	!	!	!	!	!LO:TX:i:a:t=Adagio.	!
!LO:TX:t=P:problem=jedna pauza wielotaktowa (2 ukośne kreski)	!	!LO:TX:t=P:problem=jedna pauza wielotaktowa (2 ukośne kreski)	!LO:TX:t=P:problem=jedna pauza wielotaktowa (2 ukośne kreski)	!	!	!	!	!	!	!	!	!	!	!	!	!	!	!	!	!	!	!	!	!	!	!	!	!	!	!	!	!	!	!	!	!LO:TX:i:a:t=Agnus Dei.	!
!	!	!	!	!	!	!	!	!	!	!	!	!	!	!LO:DY:a:rj	!	!	!	!	!	!	!	!LO:DY:b:rj	!	!	!	!	!LO:DY:b:rj	!	!	!	!	!	!	!	!	!	!
2.r	.	2.r	2.r	.	2B- 2BB-\	2dd 2g 2d/	2BB-/	.	.	2G/	.	2d\	A-	p	2g/	.	.	2dd\	.	.	2BB-/	p	2B-/	.	2g/	2dd\	p	2.ryy	.	2.ryy	.	2.ryy	.	2.ryy	.	2.ryy	.
.	.	.	.	.	4A 4D\	4a 4f#X 4d/	4D\	.	.	4F#X/	.	4A\	-gnus	.	4f#X/	.	.	4a/	.	.	4D/	.	4d\	.	4f#X/	4a/	.	.	.	.	.	.	.	.	.	.	.
=2	=2	=2	=2	=2	=2	=2	=2	=2	=2	=2	=2	=2	=2	=2	=2	=2	=2	=2	=2	=2	=2	=2	=2	=2	=2	=2	=2	=2	=2	=2	=2	=2	=2	=2	=2	=2	=2
*	*	*	*	*	*	*^	*	*	*	*	*	*	*	*	*	*	*	*	*	*	*	*	*	*	*	*	*	*	*	*	*	*	*	*	*	*	*
2.r	.	2.r	2.r	.	4B- 4G\	4b- 4g/	4.d\	4GG/	.	.	4G/	.	4B-\	De-	.	4g/	.	.	4b-/	.	.	4G\	.	4g\	.	4g/	4b-/	.	2.ryy	.	2.ryy	.	2.ryy	.	2.ryy	.	2.ryy	.
.	.	.	.	.	8A 8D\	8a 8f#X/	.	8D\	.	.	8F#X/	.	8A\	-i	.	8f#X/	.	.	8a/	.	.	8D\	.	8d\	.	8f#X/	8a/	.	.	.	.	.	.	.	.	.	.	.
.	.	.	.	.	8r	8r	8ryy	8r	.	.	8r	.	8r	.	.	8r	.	.	8r	.	.	8r	.	8r	.	8r	8r	.	.	.	.	.	.	.	.	.	.	.
.	.	.	.	.	4d 4D\	4bn 4fn/	4ryy	4D\	.	.	4Fn/	.	4Bn^>\	qui	.	4fn/	.	.	4bn/	.	.	4D\	.	4d\	.	4fn/	4bn/	.	.	.	.	.	.	.	.	.	.	.
=3	=3	=3	=3	=3	=3	=3	=3	=3	=3	=3	=3	=3	=3	=3	=3	=3	=3	=3	=3	=3	=3	=3	=3	=3	=3	=3	=3	=3	=3	=3	=3	=3	=3	=3	=3	=3	=3	=3
!	!	!	!	!	!	!	!	!	!	!	!	!	!LO:TX:t=P:problem=przekreślony obiegnik	!	!	!	!	!	!LO:TX:t=P:problem=przekreślony obiegnik	!	!	!	!	!	!	!	!LO:TX:t=P:problem=przekreślony obiegnik	!	!	!	!	!	!	!	!	!	!	!
2.r	.	2.r	2.r	.	2c 2C\	2cc 2e-/	2ryy	2C/	.	.	2E-/	.	2c$sS\	tol-	.	2e-/	.	.	2cc$sS\	.	.	2C/	.	2c\	.	2e-/	2cc$sS\	.	2.ryy	.	2.ryy	.	2.ryy	.	2.ryy	.	2.ryy	.
.	.	.	.	.	8.C\L	8.ee-/L	4g\	8.C/	.	.	8.E-/	.	8.e-\	-lis	.	8.e-/	.	.	8.ee-\	.	.	8.C/L	.	8.c\L	.	8.e-/L	8.ee-\L	.	.	.	.	.	.	.	.	.	.	.
.	.	.	.	.	16E-\Jk	16cc/Jk	.	16E-\	.	.	16G/	.	16c\	pec-	.	16g/	.	.	16cc\	.	.	16E-/Jk	.	16e-\Jk	.	16g/Jk	16cc\Jk	.	.	.	.	.	.	.	.	.	.	.
=4	=4	=4	=4	=4	=4	=4	=4	=4	=4	=4	=4	=4	=4	=4	=4	=4	=4	=4	=4	=4	=4	=4	=4	=4	=4	=4	=4	=4	=4	=4	=4	=4	=4	=4	=4	=4	=4	=4
!	!	!	!	!	!	!	!	!	!	!	!	!	!	!	!	!	!	!	!LO:TX:t=P:problem=brak zakończenia łuku	!	!	!	!	!	!	!	!	!	!	!	!	!	!	!	!	!	!	!
2.r	.	2.r	2.r	.	4F\	4.a/	2.f\	(>4F\	.	.	2Fn/	.	(>4.A\	-ca-	.	2fn/	.	.	(>4.a/	.	.	4F\	.	4f\	.	2fn/	(<4.a/	.	2.ryy	.	2.ryy	.	2.ryy	.	2.ryy	.	2.ryy	.
.	.	.	.	.	4E-\	.	.	4E-\)	.	.	.	.	.	.	.	.	.	.	.	.	.	4E-\	.	4e-\	.	.	.	.	.	.	.	.	.	.	.	.	.	.
!	!	!	!	!	!	!	!	!	!	!	!	!	!	!	!LO:HP:a	!	!	!	!	!	!	!	!	!	!	!	!	!	!	!	!	!	!	!	!	!	!	!
.	.	.	.	.	.	16b-/LL	.	.	.	.	.	.	16B-\LL	.	<	.	.	.	(>16b-/LL	.	.	.	.	.	.	.	16b-/LL	.	.	.	.	.	.	.	.	.	.	.
.	.	.	.	.	.	16cc/JJ	.	.	.	.	.	.	16c\JJ)	.	.	.	.	.	16cc/JJ	.	.	.	.	.	.	.	16cc/JJ)	.	.	.	.	.	.	.	.	.	.	.
!	!	!	!	!	!	!	!	!	!	!	!	!	!LO:TX:a:t=P:problem=niejednoznaczne zakończenie łuku	!	!	!	!	!	!	!	!	!	!	!LO:TX:a:t=P:problem=niejednoznaczne zapis łuku	!	!	!LO:TX:a:t=P:problem=niejednoznaczne zapis łuku	!	!	!	!	!	!	!	!	!	!	!
.	.	.	.	.	8D/L	8b-/L	.	(<8D/L	.	.	4F/	.	(>8B-\L	-ta	.	4f/	.	.	(>8b-\L)	.	.	(<8D/L	.	(<8d/L	.	4f/	(>8b-\L	.	.	.	.	.	.	.	.	.	.	.
.	.	.	.	.	16C/L	16cc/L	.	16C/L	.	.	.	.	16c\L	.	.	.	.	.	16cc\L	.	.	16C/L	.	16c/L	.	.	16cc\L	.	.	.	.	.	.	.	.	.	.	.
.	.	.	.	.	16BB-/JJ	16dd/JJ	.	16BB-/JJ)	.	.	.	.	16d\JJ)	.	[[	.	.	.	16dd\JJ)	.	.	16BB-/JJ)	.	16B-/JJ	.	.	16dd\JJ	.	.	.	.	.	.	.	.	.	.	.
*	*	*	*	*	*	*v	*v	*	*	*	*	*	*	*	*	*	*	*	*	*	*	*	*	*	*	*	*	*	*	*	*	*	*	*	*	*	*	*
!!LO:PB:g=original
=5	=5	=5	=5	=5	=5	=5	=5	=5	=5	=5	=5	=5	=5	=5	=5	=5	=5	=5	=5	=5	=5	=5	=5	=5	=5	=5	=5	=5	=5	=5	=5	=5	=5	=5	=5	=5	=5
*	*	*	*	*	*^	*	*	*	*	*	*	*	*	*	*	*	*	*	*	*	*	*	*	*	*	*	*	*	*	*	*	*	*	*	*	*	*
2.r	.	2.r	2.r	.	4AA/	2AA\	2ee- 2cc 2f/	(<2AA/	.	.	2.F/	.	(>2e-\	mun-	>	2.f/	.	.	(>2ee-\)	.	.	(<2AA/	.	2A/	.	2.f/	2ee-\	.	2.ryy	.	2.ryy	.	2.ryy	.	2.ryy	.	2.ryy	.
.	.	.	.	.	4A/	.	.	.	.	.	.	.	.	.	]	.	.	.	.	.	.	.	.	.	.	.	.	.	.	.	.	.	.	.	.	.	.	.
.	.	.	.	.	4B-\ 4BB-\	4ryy	4dd 4b- 4f/	4BB-/)	.	.	.	.	4d\)	.	.	.	.	.	4dd\)	.	.	4BB-/)	.	4B-/)	.	.	4dd\)	.	.	.	.	.	.	.	.	.	.	.
*	*	*	*	*	*v	*v	*	*	*	*	*	*	*	*	*	*	*	*	*	*	*	*	*	*	*	*	*	*	*	*	*	*	*	*	*	*	*	*
=6	=6	=6	=6	=6	=6	=6	=6	=6	=6	=6	=6	=6	=6	=6	=6	=6	=6	=6	=6	=6	=6	=6	=6	=6	=6	=6	=6	=6	=6	=6	=6	=6	=6	=6	=6	=6	=6
2.r	.	2.r	2.r	.	2F 2FF/	2cc 2a 2f/	2F\	.	.	2A\	.	2c\	-di	.	2a/	.	.	2cc\	.	.	2F\	.	2f\	.	2a/	2cc\	.	2.ryy	.	2.ryy	.	2.ryy	.	2.ryy	.	2.ryy	.
.	.	.	.	.	4r	4r	4r	.	.	4r	.	4r	.	.	4r	.	.	4r	.	.	4r	.	4r	.	4r	4r	.	.	.	.	.	.	.	.	.	.	.
=7	=7	=7	=7	=7	=7	=7	=7	=7	=7	=7	=7	=7	=7	=7	=7	=7	=7	=7	=7	=7	=7	=7	=7	=7	=7	=7	=7	=7	=7	=7	=7	=7	=7	=7	=7	=7	=7
!	!	!	!	!	!	!	!	!	!LO:DY:a:rj	!	!	!	!	!LO:DY:a:rj	!	!	!	!	!	!LO:DY:a:rj	!	!	!	!	!	!	!	!	!	!	!	!	!	!	!	!	!
2.r	.	2.r	2.r	.	2d 2D\	2ff 2b- 2f/	2D\	.	p	2B-\	.	2f\	A-	p	2b-/	.	.	2ff\	.	p	2D\	.	2d\	.	2b-\	(>2ff\	.	2.ryy	.	2.ryy	.	2.ryy	.	2.ryy	.	2.ryy	.
.	.	.	.	.	4c 4F\	4cc 4a 4f/	4F\	.	.	4A\	.	4c\	-gnus	.	4a/	.	.	4cc\	.	.	4F\	.	4f\	.	4a\	4cc\)	.	.	.	.	.	.	.	.	.	.	.
=8	=8	=8	=8	=8	=8	=8	=8	=8	=8	=8	=8	=8	=8	=8	=8	=8	=8	=8	=8	=8	=8	=8	=8	=8	=8	=8	=8	=8	=8	=8	=8	=8	=8	=8	=8	=8	=8
*	*	*	*	*	*	*^	*	*	*	*	*	*	*	*	*	*	*	*	*	*	*	*	*	*	*	*	*	*	*	*	*	*	*	*	*	*	*
2.r	.	2.r	2.r	.	4d 4B-\	4dd 4b-/	4.f\	4BB-/	.	.	4B-\	.	4d\	De-	.	4b-/	.	.	4dd\	.	.	(>4BB-/	.	(>4B-/	.	(<4b-/	4dd\	.	2.ryy	.	2.ryy	.	2.ryy	.	2.ryy	.	2.ryy	.
.	.	.	.	.	8c 8F\	8cc 8a/	.	8F\	.	.	8A\	.	8c\	-i	.	8a/	.	.	8cc\	.	.	8F\)	.	8f\)	.	8a/)	8cc\	.	.	.	.	.	.	.	.	.	.	.
.	.	.	.	.	8r	8r	8ryy	8r	.	.	8r	.	8r	.	.	8r	.	.	8r	.	.	8r	.	8r	.	8r	8r	.	.	.	.	.	.	.	.	.	.	.
.	.	.	.	.	4F\	4dd\ 4a-X\	4ryy	4F\	.	.	4A-X\	.	4d^>\	qui	.	4a-X/	.	.	4dd^>\	.	.	4F\	.	4f'<\	.	4a-X/	4dd\	.	.	.	.	.	.	.	.	.	.	.
=9	=9	=9	=9	=9	=9	=9	=9	=9	=9	=9	=9	=9	=9	=9	=9	=9	=9	=9	=9	=9	=9	=9	=9	=9	=9	=9	=9	=9	=9	=9	=9	=9	=9	=9	=9	=9	=9	=9
2.r	.	2.r	2.r	.	2E-\	4.ee-/	2.g\	2E-\	.	.	2G/	.	(>4.e-\	tol-	.	2g/	.	.	(>4.ee-\	.	.	2E-\	.	2e-\	.	[<2g/	(>4.ee-\	.	2.ryy	.	2.ryy	.	2.ryy	.	2.ryy	.	2.ryy	.
.	.	.	.	.	.	8dd/L	.	.	.	.	.	.	8d\)	.	.	.	.	.	8dd\)	.	.	.	.	.	.	.	8dd\L	.	.	.	.	.	.	.	.	.	.	.
.	.	.	.	.	8E-\L	8cc/	.	8E-\	.	.	8G/	.	8c\	-lis	.	8g/	.	.	8cc\	.	.	8E-\L	.	8e-\L	.	8g/L]	8cc\	.	.	.	.	.	.	.	.	.	.	.
.	.	.	.	.	8En\J	8b-/J	.	8En\	.	.	8G/	.	8B-\	pec-	.	8g/	.	.	8b-\	.	.	8En\J	.	8en\J	.	8g/J	8b-\J	.	.	.	.	.	.	.	.	.	.	.
*	*	*	*	*	*	*v	*v	*	*	*	*	*	*	*	*	*	*	*	*	*	*	*	*	*	*	*	*	*	*	*	*	*	*	*	*	*	*	*
=10	=10	=10	=10	=10	=10	=10	=10	=10	=10	=10	=10	=10	=10	=10	=10	=10	=10	=10	=10	=10	=10	=10	=10	=10	=10	=10	=10	=10	=10	=10	=10	=10	=10	=10	=10	=10	=10
!	!	!	!	!	!LO:TX:a:t=P:problem=brak rozpoczęcia ligatury	!	!LO:TX:a:t=P:problem=brak rozpoczęcia ligatury	!	!	!	!	!	!	!	!	!	!	!	!	!	!	!	!	!	!	!	!	!	!	!	!	!	!	!	!	!	!
2.r	.	2.r	2.r	.	[>2.F\	2a 2f/	[2.F\	.	.	2F/	.	2A\	-ca-	.	2f/	.	.	2a/	.	.	2F\	.	2f\	.	2f/	2a/)	.	2.ryy	.	2.ryy	.	2.ryy	.	2.ryy	.	2.ryy	.
.	.	.	.	.	.	4b- 4g/	.	.	.	4G/	.	4B-\	-ta	.	4g/	.	.	4b-/	.	.	4F\	.	4f\	.	4g/	4b-/	.	.	.	.	.	.	.	.	.	.	.
!!LO:PB:g=original
=11	=11	=11	=11	=11	=11	=11	=11	=11	=11	=11	=11	=11	=11	=11	=11	=11	=11	=11	=11	=11	=11	=11	=11	=11	=11	=11	=11	=11	=11	=11	=11	=11	=11	=11	=11	=11	=11
*	*	*	*	*	*	*	*	*	*	*	*	*	*	*	*	*	*	*	*	*	*	*	*	*	*	*	*	*	*	*	*	*^	*	*	*	*	*
*	*	*	*	*	*	*	*	*	*	*	*	*	*	*	*	*	*	*	*	*	*	*	*	*	*	*	*	*2\right	*	*	*	*	*	*	*	*	*	*
!	!	!	!	!	!	!	!	!	!	!	!	!	!	!	!	!	!	!	!	!LO:HP:a	!	!	!	!LO:HP:a	!	!	!	!	!LO:HP:a	!	!	!	!	!	!	!LO:HP:b	!	!
2.r	.	2.r	2.r	.	2F\]	4cc 4a\	2F\]	.	.	4A\	.	4c\	pec-	.	4a/	.	.	4cc\	pec-	<	2F\	.	2f\	<	4a/	(>4cc\	.	2F\	<	2.r	.	4cc/	4a\	.	(>4aa\	<	(>4ccc\	.
!	!	!	!	!	!	!	!	!	!LO:HP:a	!	!	!	!	!LO:HP:a	!	!	!	!	!	!	!	!	!	!	!	!	!	!	!	!	!	!	!	!	!	!	!	!
.	.	.	.	.	.	4dd 4b-\	.	.	<	4B-\	.	4d\	-ca-	<	4b-/	.	.	4dd\	-ca-	.	.	.	.	.	4b-/	4dd\	.	.	.	.	.	4dd/	4b-\	.	4bb-\	.	4ddd\	.
.	.	.	.	.	4F 4FF/	4een 4b- 4g\	4F\	-ta	[[	4B- 4G\	.	4en\	-ta	[[	4g/	.	.	4een\	-ta	[	4F\	.	4f\	[[	4g/	4een\)	.	4F\	[	.	.	4een/	4b-\	.	4gg\)	[	4eeen\)	.
=12	=12	=12	=12	=12	=12	=12	=12	=12	=12	=12	=12	=12	=12	=12	=12	=12	=12	=12	=12	=12	=12	=12	=12	=12	=12	=12	=12	=12	=12	=12	=12	=12	=12	=12	=12	=12	=12	=12
*	*	*	*	*	*	*^	*	*	*	*	*	*	*	*	*	*	*	*	*	*	*	*	*	*	*	*	*	*	*	*	*	*	*	*	*	*	*	*
*	*	*	*	*	*	*	*	*	*	*	*	*	*	*	*	*	*	*	*	*	*	*	*	*	*	*	*	*	*	*	*	*	*	*2\right	*	*2\right	*	*	*
!	!	!	!	!	!	!	!	!	!	!LO:DY:a:rj	!	!	!	!	!LO:DY:a:rj	!	!	!	!	!	!LO:DY:a:rj	!	!LO:DY:b:rj	!	!LO:DY:a:rj	!	!	!	!	!LO:DY:a:rj	!	!	!	!	!LO:DY:b:rj	!	!LO:DY:a:rj	!	!
2.r	.	2.r	2.r	.	2F 2FF/	4ff/	2a 2f\	4F\	mun-	f	4A\	.	(>8f\L	mun-	f	4a/	.	.	8ff\L	mun-	f	2F\	f	2f\	f	2a/	(>4ff\	f	2F\	f	2.r	.	4ff/	2a\	f	2aa\	f	(>4fff\	.
.	.	.	.	.	.	.	.	.	.	.	.	.	8c\J)	.	.	.	.	.	8cc\J	.	.	.	.	.	.	.	.	.	.	.	.	.	.	.	.	.	.	.	.
.	.	.	.	.	.	4cc/	.	4F\	-di	.	4A\	.	4c\	-di	.	4a/	.	.	4cc\	-di	.	.	.	.	.	.	4cc\)	.	.	.	.	.	4cc/	.	.	.	.	4ccc\)	.
!	!	!	!	!	!	!	!	!	!	!LO:DY:a:rj	!	!	!	!	!	!	!	!	!	!	!	!	!LO:DY:b:rj	!	!	!	!	!	!	!	!	!	!	!	!	!	!	!	!
.	.	.	.	.	4F\	4rcc	4re	8F\	mi-	p	4r	.	4r	.	.	4r	.	.	4r	.	.	4F\	p	4r	.	4r	4r	.	4r	.	.	.	4r	4ryy	.	4r	.	4r	.
!	!	!	!	!	!	!	!	!LO:SIC:v:l:s=-se-	!	!	!	!	!	!	!	!	!	!	!	!	!	!	!	!	!	!	!	!	!	!	!	!	!	!	!	!	!	!	!
.	.	.	.	.	.	.	.	8F\	-ſse-	.	.	.	.	.	.	.	.	.	.	.	.	.	.	.	.	.	.	.	.	.	.	.	.	.	.	.	.	.	.
*	*	*	*	*	*	*v	*v	*	*	*	*	*	*	*	*	*	*	*	*	*	*	*	*	*	*	*	*	*	*	*	*	*	*v	*v	*	*	*	*	*
=13	=13	=13	=13	=13	=13	=13	=13	=13	=13	=13	=13	=13	=13	=13	=13	=13	=13	=13	=13	=13	=13	=13	=13	=13	=13	=13	=13	=13	=13	=13	=13	=13	=13	=13	=13	=13	=13
2.r	.	2.r	2.r	.	(>2.G-X\	4r	2.G-X\	-re-	.	4r	.	4r	.	.	4r	.	.	4r	.	.	2G-X\	.	4r	.	4r	4r	.	2.ryy	.	2.ryy	.	2.ryy	.	2.ryy	.	2.ryy	.
!	!	!	!	!	!	!	!	!	!	!	!	!	!	!	!	!	!	!	!	!LO:DY:a	!	!	!	!	!	!	!	!	!	!	!	!	!	!	!	!	!
.	.	.	.	.	.	4r	.	.	.	4r	.	4r	.	.	4r	.	.	4r	.	p	.	.	4r	.	4r	4r	.	.	.	.	.	.	.	.	.	.	.
!	!	!	!	!	!	!	!	!	!	!	!	!	!	!LO:DY:a:rj	!	!	!	!	!	!	!	!	!	!	!	!	!LO:DY:b:rj	!	!	!	!	!	!	!	!	!	!
.	.	.	.	.	.	4een 4b-\	.	.	.	8B-\	.	8en\	mi-	p	8b-/	.	.	8een\	mi-	.	4G-\	.	4g-X\	.	4b-/	4een\	p	.	.	.	.	.	.	.	.	.	.
!	!	!	!	!	!	!	!	!	!	!	!	!LO:SIC:v:l:s=-se-	!	!	!	!	!	!LO:SIC:v:l:s=-se-	!	!	!	!	!	!	!	!	!	!	!	!	!	!	!	!	!	!	!
.	.	.	.	.	.	.	.	.	.	8B-\	.	8e\	-ſse-	.	8b-/	.	.	8ee\	-ſse-	.	.	.	.	.	.	.	.	.	.	.	.	.	.	.	.	.	.
=14	=14	=14	=14	=14	=14	=14	=14	=14	=14	=14	=14	=14	=14	=14	=14	=14	=14	=14	=14	=14	=14	=14	=14	=14	=14	=14	=14	=14	=14	=14	=14	=14	=14	=14	=14	=14	=14
*	*	*	*	*	*	*^	*	*	*	*	*	*	*	*	*	*	*	*	*	*	*	*	*	*	*	*	*	*	*	*	*	*	*	*	*	*	*
2.r	.	2.r	2.r	.	2F\)	4ff/	2a\	2F\	-re	.	4A\	.	8f\L	-re-	.	4a/	.	.	8ff\L	-re-	.	2F\	.	2f\	.	2a/	(>4ff\	.	2.ryy	.	2.ryy	.	2.ryy	.	2.ryy	.	2.ryy	.
.	.	.	.	.	.	.	.	.	.	.	.	.	8c\J	.	.	.	.	.	8cc\J	.	.	.	.	.	.	.	.	.	.	.	.	.	.	.	.	.	.	.
.	.	.	.	.	.	4cc/	.	.	.	.	4A\	.	4c\	-re	.	4a/	.	.	4cc\	-re	.	.	.	.	.	.	4cc\)	.	.	.	.	.	.	.	.	.	.	.
.	.	.	.	.	4F\	4rcc	4re	8F\	mi-	.	4r	.	4r	.	.	4r	.	.	4r	.	.	4F\	.	4r	.	4r	4r	.	.	.	.	.	.	.	.	.	.	.
!	!	!	!	!	!	!	!	!LO:SIC:v:l:s=-se-	!	!	!	!	!	!	!	!	!	!	!	!	!	!	!	!	!	!	!	!	!	!	!	!	!	!	!	!	!	!
.	.	.	.	.	.	.	.	8F\	-ſse-	.	.	.	.	.	.	.	.	.	.	.	.	.	.	.	.	.	.	.	.	.	.	.	.	.	.	.	.	.
=15	=15	=15	=15	=15	=15	=15	=15	=15	=15	=15	=15	=15	=15	=15	=15	=15	=15	=15	=15	=15	=15	=15	=15	=15	=15	=15	=15	=15	=15	=15	=15	=15	=15	=15	=15	=15	=15	=15
2.r	.	2.r	2.r	.	2.G-X\	4r	4ryy	2.G-X\	-re-	.	4r	.	4r	.	.	4r	.	.	4r	.	.	2G-X\	.	4r	.	4r	4r	.	2.ryy	.	2.ryy	.	2.ryy	.	2.ryy	.	2.ryy	.
.	.	.	.	.	.	4r	4ryy	.	.	.	4r	.	4r	.	.	4r	.	.	4r	.	.	.	.	4r	.	4r	4r	.	.	.	.	.	.	.	.	.	.	.
.	.	.	.	.	.	4een/	4b-\	.	.	.	8B-\	.	8en\	mi-	.	8b-/	.	.	8een\	mi-	.	4G-\	.	4g-X\	.	4b-/	4een\	.	.	.	.	.	.	.	.	.	.	.
!	!	!	!	!	!	!	!	!	!	!	!	!	!LO:SIC:v:l:s=-se-	!	!	!	!	!	!LO:SIC:v:l:s=-se-	!	!	!	!	!	!	!	!	!	!	!	!	!	!	!	!	!	!	!
.	.	.	.	.	.	.	.	.	.	.	8B-\	.	8e\	-ſse	.	8b-/	.	.	8ee\	-ſse	.	.	.	.	.	.	.	.	.	.	.	.	.	.	.	.	.	.
!!LO:PB:g=original
=16	=16	=16	=16	=16	=16	=16	=16	=16	=16	=16	=16	=16	=16	=16	=16	=16	=16	=16	=16	=16	=16	=16	=16	=16	=16	=16	=16	=16	=16	=16	=16	=16	=16	=16	=16	=16	=16	=16
2.r	.	2.r	2.r	.	2F\	4ff/	2a\	4F\	-re	.	4A/	.	(>8f\L	mun-	.	4a/	.	.	8ff\L	mun-	.	4F\	.	4f\	.	4a/	8ff\L	.	2.ryy	.	2.ryy	.	2.ryy	.	2.ryy	.	2.ryy	.
.	.	.	.	.	.	.	.	.	.	.	.	.	8c\J)	.	.	.	.	.	8cc\J	.	.	.	.	.	.	.	8cc\J	.	.	.	.	.	.	.	.	.	.	.
!	!	!	!	!	!	!	!	!	!	!LO:DY:a:rj	!	!	!	!	!	!	!	!	!	!	!	!	!	!	!	!	!	!	!	!	!	!	!	!	!	!	!	!
.	.	.	.	.	.	4cc/	.	(>4F\	A-	mf	4A/	.	4c\	-di	.	4a/	.	.	4cc\	-di	.	(>4F\	.	(>4f\	.	4a/	4cc\	.	.	.	.	.	.	.	.	.	.	.
.	.	.	.	.	4E-\	4r	4ryy	4E-\	.	.	4r	.	4r	.	.	4r	.	.	4r	.	.	4E-\)	.	4e-\)	.	4r	4r	.	.	.	.	.	.	.	.	.	.	.
*	*	*	*	*	*	*v	*v	*	*	*	*	*	*	*	*	*	*	*	*	*	*	*	*	*	*	*	*	*	*	*	*	*	*	*	*	*	*	*
=17	=17	=17	=17	=17	=17	=17	=17	=17	=17	=17	=17	=17	=17	=17	=17	=17	=17	=17	=17	=17	=17	=17	=17	=17	=17	=17	=17	=17	=17	=17	=17	=17	=17	=17	=17	=17	=17
!	!	!	!	!	!	!	!	!	!	!	!	!	!	!LO:DY:a:rj	!	!	!	!	!	!LO:DY:a:rj	!	!	!	!	!	!	!LO:DY:a:rj	!	!	!	!	!	!	!	!	!	!
2.r	.	2.r	2.r	.	2D/	2ff 2f/	2D/)	.	.	2.r	.	2f\	A-	mf	2.r	.	.	2ff\	A-	mf	2D/	.	2d\	.	2.r	2ff\	mf	2.ryy	.	2.ryy	.	2.ryy	.	2.ryy	.	2.ryy	.
.	.	.	.	.	4C/	4ee- 4e-/	4C/	-gnus	.	.	.	4e-\	-gnus	.	.	.	.	4ee-\	-gnus	.	4C/	.	4c\	.	.	4ee-\	.	.	.	.	.	.	.	.	.	.	.
=18	=18	=18	=18	=18	=18	=18	=18	=18	=18	=18	=18	=18	=18	=18	=18	=18	=18	=18	=18	=18	=18	=18	=18	=18	=18	=18	=18	=18	=18	=18	=18	=18	=18	=18	=18	=18	=18
.	.	.	.	.	.	.	.	.	.	.	.	(<8qe-/	.	.	.	.	.	8qee-/	.	.	.	.	.	.	.	(<8qee-/	.	.	.	.	.	.	.	.	.	.	.
*	*	*	*	*	*^	*	*	*	*	*	*	*	*	*	*	*	*	*	*	*	*	*	*	*	*	*	*	*	*	*	*	*	*	*	*	*	*
2.r	.	2.r	2.r	.	4BB-/	2BB-\	2dd 2d/	4BB-/	De-	.	2B-\	A-	4d\)	De-	.	2b-/	A-	.	4dd\	De-	.	2BB-/	.	2B-/	.	2b-/	4dd\)	.	2.ryy	.	2.ryy	.	2.ryy	.	2.ryy	.	2.ryy	.
.	.	.	.	.	4B-/	.	.	4BB-/	-i	.	.	.	4d\	-i	.	.	.	.	4dd\	-i	.	.	.	.	.	.	4dd\	.	.	.	.	.	.	.	.	.	.	.
.	.	.	.	.	4A-X/	4r	4r	4r	.	.	4A-X\	-gnus	4r	.	.	4a-X/	-gnus	.	4r	.	.	4r	.	4r	.	4a-X/	4r	.	.	.	.	.	.	.	.	.	.	.
=19	=19	=19	=19	=19	=19	=19	=19	=19	=19	=19	=19	=19	=19	=19	=19	=19	=19	=19	=19	=19	=19	=19	=19	=19	=19	=19	=19	=19	=19	=19	=19	=19	=19	=19	=19	=19	=19	=19
*	*	*	*	*	*	*	*^	*	*	*	*	*	*	*	*	*	*	*	*	*	*	*	*	*	*	*	*	*	*	*	*	*	*	*	*	*	*	*
2.r	.	2.r	2.r	.	4.G/	4.G\	4.ee-/	2.b-\	8r	.	.	(<8G/L	De-	(>4.e-\	A-	.	(<8g/L	De-	.	(>4.ee-\	A-	.	8r	.	8r	.	(<8g/L	(>4.ee-\	.	2.ryy	.	2.ryy	.	2.ryy	.	2.ryy	.	2.ryy	.
.	.	.	.	.	.	.	.	.	(>4G\	A-	.	8B-/J)	.	.	.	.	8b-/J)	.	.	.	.	.	(4G\	.	(>4g\	.	8b-/J)	.	.	.	.	.	.	.	.	.	.	.	.
.	.	.	.	.	.	.	.	.	.	.	.	4B-\	-i	.	.	.	4b-/	-i	.	.	.	.	.	.	.	.	4b-\	.	.	.	.	.	.	.	.	.	.	.	.
.	.	.	.	.	8F\L	8ryy	8dd/L	.	8F\L	.	.	.	.	8d\L	.	.	.	.	.	8dd\L	.	.	8F\L	.	8f\L	.	.	8dd\L	.	.	.	.	.	.	.	.	.	.	.
.	.	.	.	.	8E-\	4ryy	8gg/	.	8E-\J)	.	.	4B-\	qui	8g\J)	.	.	4b-/	qui	.	8gg\J)	.	.	8E-\	.	8e-\	.	4b-\	8gg\	.	.	.	.	.	.	.	.	.	.	.
.	.	.	.	.	8D\J	.	8ff/J	.	8D\	-gnus	.	.	.	8f\	-gnus	.	.	.	.	8ff\	-gnus	.	8D\J	.	8d\J	.	.	8ff\J)	.	.	.	.	.	.	.	.	.	.	.
*	*	*	*	*	*v	*v	*	*	*	*	*	*	*	*	*	*	*	*	*	*	*	*	*	*	*	*	*	*	*	*	*	*	*	*	*	*	*	*	*
=20	=20	=20	=20	=20	=20	=20	=20	=20	=20	=20	=20	=20	=20	=20	=20	=20	=20	=20	=20	=20	=20	=20	=20	=20	=20	=20	=20	=20	=20	=20	=20	=20	=20	=20	=20	=20	=20	=20
2.r	.	2.r	2.r	.	2C/	8ff/L	2a\	4C/	De-	.	4A\	tol-	(>8f\L	De-	.	4a/	tol-	.	(>8ff\L	De-	.	2C/)	.	2c/)	.	2a/	(>8ff\L	.	2.ryy	.	2.ryy	.	2.ryy	.	2.ryy	.	2.ryy	.
.	.	.	.	.	.	8ee-/J	.	.	.	.	.	.	8e-\J)	.	.	.	.	.	8ee-\J)	.	.	.	.	.	.	.	8ee-\J)	.	.	.	.	.	.	.	.	.	.	.
.	.	.	.	.	.	4ee-/	.	4C/	-i	.	4A\	-lis	4e-\	-i	.	4a/	-lis	.	4ee-\	-i	.	.	.	.	.	.	4ee-\	.	.	.	.	.	.	.	.	.	.	.
.	.	.	.	.	4BB-/	4dd/	4b-\	4BB-/	qui	.	4B-\	pec	4d\	qui	.	4b-/	pec-	.	4dd\	qui	.	4BB-/	.	4d 4B-/	.	4b-/	4dd\	.	.	.	.	.	.	.	.	.	.	.
!!LO:PB:g=original
=21	=21	=21	=21	=21	=21	=21	=21	=21	=21	=21	=21	=21	=21	=21	=21	=21	=21	=21	=21	=21	=21	=21	=21	=21	=21	=21	=21	=21	=21	=21	=21	=21	=21	=21	=21	=21	=21	=21
2.r	.	2.r	2.r	.	2F\	4dd/	4b-\	4F\	.	.	4B-\	.	4d\	tol-	.	4b-/	-ca-	.	4dd\	.	.	2F\	.	2f\	.	(<4b-/	(>4dd\	.	2.r	.	2.r	.	2.r	.	2.r	.	2.r	.
.	.	.	.	.	.	4cc/	2a\	4F\	.	.	4A\	.	4c\	-lis	.	4a/	-ta	.	4cc\	.	.	.	.	.	.	4a/)	4cc\)	.	.	.	.	.	.	.	.	.	.	.
.	.	.	.	.	4F#X\	4dd/	.	4F#X\	.	.	4A\	.	4d\	pec-	.	4a/	.	.	4dd\	.	.	4F#X\	.	4f#X\	.	4a/	4dd\	.	.	.	.	.	.	.	.	.	.	.
=22	=22	=22	=22	=22	=22	=22	=22	=22	=22	=22	=22	=22	=22	=22	=22	=22	=22	=22	=22	=22	=22	=22	=22	=22	=22	=22	=22	=22	=22	=22	=22	=22	=22	=22	=22	=22	=22	=22
*	*	*	*	*	*	*	*	*	*	*	*	*	*	*	*	*	*	*	*	*	*	*	*	*	*	*	*	*	*	*	*	*	*^	*	*	*	*	*
2.r	.	2.r	2.r	.	2G\	2b-/	2.g\	2G\	.	.	2G/	.	2B-\	-ca-	.	2g/	.	.	2b-\	.	.	2G\	.	2g\	.	2g/	2b-\	.	4r	.	2.r	.	4r	4ryy	.	4r	.	4r	.
.	.	.	.	.	.	.	.	.	.	.	.	.	.	.	.	.	.	.	.	.	.	.	.	.	.	.	.	.	4r	.	.	.	4r	4ryy	.	4r	.	4r	.
!	!	!	!	!	!	!LO:TUP:a:problem=klamra łukowa	!	!	!	!	!	!	!LO:TUP:a:problem=klamra łukowa	!	!	!	!	!	!LO:TUP:a:problem=klamra łukowa	!	!	!	!	!	!	!	!	!	!	!	!	!	!LO:TUP:a:problem=klamra łukowa	!	!	!	!	!LO:TUP:a:problem=klamra łukowa	!
*	*	*	*	*	*	*	*	*	*	*	*	*	*	*	*	*	*	*	*	*	*	*	*	*	*	*	*Xtuplet	*	*	*	*	*	*	*	*	*	*	*	*
.	.	.	.	.	4E-\	12cc/L	.	4E-\	.	.	4G/	.	12c\L	-ta	.	4g/	.	.	12cc\L	.	.	4E-\	.	4e-\	.	4g/	12cc\L	.	4E-\	.	.	.	12cc/L	4g\	.	4gg\	.	12ccc\L	.
.	.	.	.	.	.	12b-/	.	.	.	.	.	.	12B-\	.	.	.	.	.	12b-\	.	.	.	.	.	.	.	12b-\	.	.	.	.	.	12b-/	.	.	.	.	12bb-\	.
.	.	.	.	.	.	12cc/J	.	.	.	.	.	.	12c\J	.	.	.	.	.	12cc\J	.	.	.	.	.	.	.	12cc\J	.	.	.	.	.	12cc/J	.	.	.	.	12ccc\J	.
=23	=23	=23	=23	=23	=23	=23	=23	=23	=23	=23	=23	=23	=23	=23	=23	=23	=23	=23	=23	=23	=23	=23	=23	=23	=23	=23	=23	=23	=23	=23	=23	=23	=23	=23	=23	=23	=23	=23	=23
*	*	*	*	*	*	*	*	*	*	*	*	*	*	*	*	*	*	*	*	*	*	*	*	*	*	*	*	*	*	*	*	*	*	*	*	*	*	*2\right	*
!	!	!	!	!	!	!	!	!	!	!	!	!	!	!	!	!	!	!	!	!	!LO:DY:a:rj	!	!	!	!	!	!	!	!	!	!	!	!	!	!	!	!	!	!
!	!	!	!	!	!	!	!	!	!	!LO:DY:a:rj	!	!	!	!	!LO:DY:a:rj	!	!	!	!	!	!LO:HP:a	!	!	!	!	!	!	!	!	!LO:DY:b:rj	!	!	!	!	!LO:DY:b:rj	!	!LO:DY:a:rj	!	!LO:DY:b:rj
!	!	!	!	!	!	!	!	!	!	!	!	!	!	!	!	!	!	!	!	!	!	!	!	!	!LO:DY:b:rj	!	!	!LO:HP:b	!	!LO:HP:a	!	!	!	!	!LO:HP:a	!	!LO:HP:a	!	!
2.r	.	2.r	2.r	.	(>2D\	2dd/	2f#X\	(<2D/	.	f	(<2F#X/	.	(>2d\	mun-	f	2f#X/	.	.	2dd\	.	f <	2D/	.	(>2d\	f	(<2f#X/	(>2dd\	<	(<2D/	f <	2.r	.	(>2dd/	(<2f#X\	f <	2ff#X\	f<	(>2ddd\	.
!	!	!	!	!	!	!	!	!	!	!	!	!	!	!	!	!	!	!	!	!	!	!	!	!	!	!	!	!	!	!LO:HP:a	!	!	!	!	!LO:HP:a	!	!LO:HP:a	!	!
!	!	!	!	!	!	!	!	!	!	!	!	!	!	!	!	!	!	!	!	!	!LO:DY:a	!	!	!	!	!	!	!LO:HP:b	!	!LO:DY:a	!	!	!	!	!LO:DY:a	!	!LO:DY:a	!	!
.	.	.	.	.	4C/	4ee-/	4g\	4C/)	.	.	4G/)	.	4e-\)	.	.	4g/	.	.	4ee-\	.	[ > ]]	4C/	.	4c\)	.	4g/)	4ee-\)	[ >	4C/)	[ > ]]	.	.	4ee-/)	4g\)	[ >	4gg\	[ >	4eee-\)	.
*	*	*	*	*	*	*v	*v	*	*	*	*	*	*	*	*	*	*	*	*	*	*	*	*	*	*	*	*	*	*	*	*	*	*v	*v	*	*	*	*	*
=24	=24	=24	=24	=24	=24	=24	=24	=24	=24	=24	=24	=24	=24	=24	=24	=24	=24	=24	=24	=24	=24	=24	=24	=24	=24	=24	=24	=24	=24	=24	=24	=24	=24	=24	=24	=24	=24
2.r	.	2.r	2.r	.	4D\)	4dd 4f#X/	4D/	-di	.	4F#X/	.	4d\	-di	.	4f#X/	.	.	4dd\	.	.	4D/	.	4d\	.	4f#X/	4dd\	]	4D/	.	2.r	.	4dd 4f#X/	]	4ff#X\	]	4ddd\	.
!	!	!	!	!	!	!	!LO:TX:a:t=P:problem=niejednoznaczny zapis łuku	!	!	!	!	!	!	!	!	!	!	!	!	!	!	!	!	!	!	!	!	!	!	!	!	!	!	!	!	!	!
.	.	.	.	.	(<4D/	4r	(<4D/	A-	.	4r	.	4r	.	.	4r	.	.	4r	.	.	(<4D/	.	(>4d\	.	4r	4r	.	4r	.	.	.	4r	.	4r	.	4r	.
.	.	.	.	.	4C/	4r	4C/	.	.	4r	.	4r	.	.	4r	.	.	4r	.	.	4C/)	.	4c\)	.	4r	4r	.	4r	.	.	.	4r	.	4r	.	4r	.
=25	=25	=25	=25	=25	=25	=25	=25	=25	=25	=25	=25	=25	=25	=25	=25	=25	=25	=25	=25	=25	=25	=25	=25	=25	=25	=25	=25	=25	=25	=25	=25	=25	=25	=25	=25	=25	=25
*	*	*	*	*	*^	*	*	*	*	*	*	*	*	*	*	*	*	*	*	*	*	*	*	*	*	*	*	*	*	*	*	*	*	*	*	*	*
!	!	!	!	!	!	!	!	!	!	!	!	!	!	!	!LO:DY:a:rj	!	!	!	!	!	!LO:DY:a:rj	!	!	!	!LO:DY:b:rj	!	!	!LO:DY:b:rj	!	!	!	!	!	!	!	!	!	!
2.r	.	2.r	2.r	.	4BB-/)	2BB-\	2dd 2g 2d/	2BB-/)	.	.	2G/	.	2d\	A-	p	2g/	.	.	2dd\	A-	p	2BB-/	.	2B-/	p	2g/	2dd\	p	2.r	.	2.r	.	2.r	.	2.r	.	2.r	.
.	.	.	.	.	4B-/	.	.	.	.	.	.	.	.	.	.	.	.	.	.	.	.	.	.	.	.	.	.	.	.	.	.	.	.	.	.	.	.	.
.	.	.	.	.	4A\ 4D\	4ryy	4a 4f#X 4d/	4D\	-gnus	.	4F#X/	.	4A\	-gnus	.	4f#X/	.	.	4a/	.	.	4D\	.	4d\	.	4f#X/	4a/	.	.	.	.	.	.	.	.	.	.	.
*	*	*	*	*	*v	*v	*	*	*	*	*	*	*	*	*	*	*	*	*	*	*	*	*	*	*	*	*	*	*	*	*	*	*	*	*	*	*	*
!!LO:PB:g=original
=26	=26	=26	=26	=26	=26	=26	=26	=26	=26	=26	=26	=26	=26	=26	=26	=26	=26	=26	=26	=26	=26	=26	=26	=26	=26	=26	=26	=26	=26	=26	=26	=26	=26	=26	=26	=26	=26
2.r	.	2.r	2.r	.	4B- 4G\	4b- 4g/	4GG/	De-	.	4G/	.	(>4B-\	De-	.	4g/	.	.	4b-/	.	.	4G\	.	4g\	.	(<4g/	(<4b-/	.	2.ryy	.	2.ryy	.	2.ryy	.	2.ryy	.	2.ryy	.
.	.	.	.	.	8A 8D\	8a 8f#X/	8D\	-i	.	8F#X/	.	8A\)	-i	.	8f#X/	.	.	8a/	.	.	8D\	.	8d\	.	8f#X/)	8a/)	.	.	.	.	.	.	.	.	.	.	.
.	.	.	.	.	8r	8r	8r	.	.	8r	.	8r	.	.	8r	.	.	8r	.	.	8r	.	8r	.	8r	8r	.	.	.	.	.	.	.	.	.	.	.
.	.	.	.	.	4d 4D\	4bn 4fn/	4D^>\	.	.	4Fn/	.	4Bn^>\	qui	.	4fn/	.	.	4bn/	.	.	4D/	.	4d\	.	4fn/	4bn\	.	.	.	.	.	.	.	.	.	.	.
=27	=27	=27	=27	=27	=27	=27	=27	=27	=27	=27	=27	=27	=27	=27	=27	=27	=27	=27	=27	=27	=27	=27	=27	=27	=27	=27	=27	=27	=27	=27	=27	=27	=27	=27	=27	=27	=27
*	*	*	*	*	*	*^	*	*	*	*	*	*	*	*	*	*	*	*	*	*	*	*	*	*	*	*	*	*	*	*	*	*	*	*	*	*	*
!	!	!	!	!	!	!	!	!	!	!	!	!	!LO:TX:t=P:problem=przekreślony obiegnik	!	!	!	!	!	!LO:TX:t=P:problem=przekreślony obiegnik	!	!	!	!	!	!	!	!LO:TX:t=P:problem=przekreślony obiegnik	!	!	!	!	!	!	!	!	!	!	!
2.r	.	2.r	2.r	.	2c 2C\	2cc/	2e-\	2C/	.	.	2E-/	.	2c$sS\	tol-	.	2e-/	.	.	2cc$sS\	.	.	2C/	.	2c\	.	2e-/	2cc$sS\	.	2.ryy	.	2.ryy	.	2.ryy	.	2.ryy	.	2.ryy	.
.	.	.	.	.	8.C\L	8.ee-/L	4g\	8.C/	.	.	8.G/	.	8.e-\	-lis	.	8.g/	.	.	8.ee-\	.	.	8.C/L	.	8.c\L	.	8.g/L	8.ee-\L	.	.	.	.	.	.	.	.	.	.	.
.	.	.	.	.	16E-\Jk	16cc/Jk	.	16E-\	.	.	16G/	.	16c\	pec-	.	16g/	.	.	16cc\	.	.	16E-/Jk	.	16e-\Jk	.	16g/Jk	16cc\J	.	.	.	.	.	.	.	.	.	.	.
=28	=28	=28	=28	=28	=28	=28	=28	=28	=28	=28	=28	=28	=28	=28	=28	=28	=28	=28	=28	=28	=28	=28	=28	=28	=28	=28	=28	=28	=28	=28	=28	=28	=28	=28	=28	=28	=28	=28
2.r	.	2.r	2.r	.	2D\	4b-/	2g\	2D\	.	.	2G/	.	(>4B-\	-ca-	.	(>2g/	.	.	(<4b-/	.	.	2D\	.	2d\	.	2g/	(<4b-/	.	2.ryy	.	2.ryy	.	2.ryy	.	2.ryy	.	2.ryy	.
.	.	.	.	.	.	4a/	.	.	.	.	.	.	4A\)	.	.	.	.	.	4a/)	.	.	.	.	.	.	.	4a/)	.	.	.	.	.	.	.	.	.	.	.
.	.	.	.	.	4D\	4dd/	4f#X\	4D\	.	.	4F#X/	.	4d\	-ta	.	4f#X/)	.	.	4dd\	.	.	4D\	.	4d\	.	4f#X/	4dd\	.	.	.	.	.	.	.	.	.	.	.
=29	=29	=29	=29	=29	=29	=29	=29	=29	=29	=29	=29	=29	=29	=29	=29	=29	=29	=29	=29	=29	=29	=29	=29	=29	=29	=29	=29	=29	=29	=29	=29	=29	=29	=29	=29	=29	=29	=29
2.r	.	2.r	2.r	.	(>4E-\	4b-/	2g\	(>4E-\	.	.	(<2G/	.	(>4B-\	mun-	.	(>2g/	.	.	(>4b-/	.	.	(>4E-\	.	(>4e-\	.	2g/	(<4b-/	.	2.ryy	.	2.ryy	.	2.ryy	.	2.ryy	.	2.ryy	.
.	.	.	.	.	4C\	2a/	.	4C\	.	.	.	.	2A\)	.	.	.	.	.	2a/)	.	.	4C\)	.	4c\)	.	.	2a/)	.	.	.	.	.	.	.	.	.	.	.
.	.	.	.	.	4D\)	.	4f#X\	4D\)	.	.	4F#X/)	.	.	.	.	4f#X/)	.	.	.	.	.	4D\	.	4d\	.	4f#X/	.	.	.	.	.	.	.	.	.	.	.	.
*	*	*	*	*	*	*v	*v	*	*	*	*	*	*	*	*	*	*	*	*	*	*	*	*	*	*	*	*	*	*	*	*	*	*	*	*	*	*	*
*	*	*kcancel	*	*	*kcancel	*kcancel	*kcancel	*	*	*kcancel	*	*kcancel	*	*	*kcancel	*	*	*kcancel	*	*	*kcancel	*	*kcancel	*	*kcancel	*kcancel	*	*kcancel	*	*	*	*kcancel	*	*kcancel	*	*kcancel	*
=30||	=30||	=30||	=30||	=30||	=30||	=30||	=30||	=30||	=30||	=30||	=30||	=30||	=30||	=30||	=30||	=30||	=30||	=30||	=30||	=30||	=30||	=30||	=30||	=30||	=30||	=30||	=30||	=30||	=30||	=30||	=30||	=30||	=30||	=30||	=30||	=30||	=30||
*	*	*k[f#]	*	*	*k[f#]	*k[f#]	*k[f#]	*	*	*k[f#]	*	*k[f#]	*	*	*k[f#]	*	*	*k[f#]	*	*	*k[f#]	*	*k[f#]	*	*k[f#]	*k[f#]	*	*k[f#]	*	*	*	*k[f#]	*	*k[f#]	*	*k[f#]	*
*	*	*	*	*	*	*^	*	*	*	*	*	*	*	*	*	*	*	*	*	*	*	*	*	*	*	*	*	*	*	*	*	*	*	*	*	*	*
!	!	!	!LO:TX:b:t=10.	!	!	!	!	!	!	!	!	!	!	!	!	!	!	!	!	!	!	!	!	!	!	!	!	!	!	!	!	!	!	!	!	!	!	!
!	!	!	!LO:TX:i:a:t=Allegretto.	!	!	!	!	!	!	!	!	!	!	!	!	!LO:TX:i:b:t=Allegretto.	!	!	!	!	!	!	!	!	!	!	!	!	!	!	!	!	!	!	!	!	!	!
!LO:TX:t=P:problem=jedna pauza wielotaktowa (2 ukośne kreski)	!	!LO:TX:t=P:problem=jedna pauza wielotaktowa (2 ukośne kreski)	!LO:TX:t=P:problem=jedna pauza wielotaktowa (2 ukośne kreski)	!	!	!	!	!	!	!	!	!	!	!	!	!	!	!	!	!	!	!	!	!	!	!	!	!	!	!	!	!	!	!	!	!	!	!
2.r	.	2.r	2.r	.	[>2G\	[>2g/	2g\	2G\	.	.	2G/	.	2G/	-di	.	2g/	.	.	2g/	.	.	2G\	.	2g\	.	2g/	2g/	.	2.ryy	.	2.ryy	.	2.ryy	.	2.ryy	.	2.ryy	.
.	.	.	.	.	8.G\L]	8.g/L]	4ryy	8.G\	.	.	8.G/	.	8.G/	Do-	.	8.g/	.	.	8.g/	.	.	8.G\L	.	8.g\L	.	8.g/L	8.g/L	.	.	.	.	.	.	.	.	.	.	.
.	.	.	.	.	16D\Jk	16aJk 16f#/	.	16D\	.	.	16F#/	.	16A/	-na	.	16f#X/	.	.	16a/	.	.	16D\Jk	.	16d\Jk	.	16f#/Jk	16a/Jk	.	.	.	.	.	.	.	.	.	.	.
*	*	*	*	*	*	*v	*v	*	*	*	*	*	*	*	*	*	*	*	*	*	*	*	*	*	*	*	*	*	*	*	*	*	*	*	*	*	*	*
!!LO:PB:g=original
=31	=31	=31	=31	=31	=31	=31	=31	=31	=31	=31	=31	=31	=31	=31	=31	=31	=31	=31	=31	=31	=31	=31	=31	=31	=31	=31	=31	=31	=31	=31	=31	=31	=31	=31	=31	=31	=31
2.r	.	2.r	2.r	.	2G\	2b 2g 2d/	2G\	.	.	2G/	.	2B\	no-	.	2g/	.	.	2b/	.	.	2G\	.	2g\	.	[<2g/	(<2b/	.	2.ryy	.	2.ryy	.	2.ryy	.	2.ryy	.	2.ryy	.
.	.	.	.	.	4E\	4g 4e/	4E\	.	.	4G/	.	4G/	-bis	.	4g/	.	.	4g/	.	.	4E\	.	4e\	.	4g/]	4g/)	.	.	.	.	.	.	.	.	.	.	.
=32	=32	=32	=32	=32	=32	=32	=32	=32	=32	=32	=32	=32	=32	=32	=32	=32	=32	=32	=32	=32	=32	=32	=32	=32	=32	=32	=32	=32	=32	=32	=32	=32	=32	=32	=32	=32	=32
*	*	*	*	*	*	*^	*	*	*	*	*	*	*	*	*	*	*	*	*	*	*	*	*	*	*	*	*	*	*	*	*	*	*	*	*	*	*
2.r	.	2.r	2.r	.	2AA/	2cc/	4.e\	(>2AA/	.	.	(<4.E/	.	(>2c\	pa-	.	(>4.e/	.	.	(>2cc\	.	.	2AA/	.	2A/	.	(<4.e/	(>2cc\	.	2.ryy	.	2.ryy	.	2.ryy	.	2.ryy	.	2.ryy	.
.	.	.	.	.	.	.	8f#\	.	.	.	8F#/	.	.	.	.	8f#/	.	.	.	.	.	.	.	.	.	8f#/	.	.	.	.	.	.	.	.	.	.	.	.
.	.	.	.	.	8GG/L	4b/	4g\	8GG/L	.	.	4G/)	.	4B\)	.	.	4g/)	.	.	4b\)	.	.	8GG/L	.	8G/L	.	4g/)	4b\)	.	.	.	.	.	.	.	.	.	.	.
.	.	.	.	.	8BB/J	.	.	8BB/J	.	.	.	.	.	.	.	.	.	.	.	.	.	8BB/J	.	8B/J	.	.	.	.	.	.	.	.	.	.	.	.	.	.
=33	=33	=33	=33	=33	=33	=33	=33	=33	=33	=33	=33	=33	=33	=33	=33	=33	=33	=33	=33	=33	=33	=33	=33	=33	=33	=33	=33	=33	=33	=33	=33	=33	=33	=33	=33	=33	=33	=33
2.r	.	2.r	2.r	.	2D\	2a 2f#/	2ryy	2D\)	.	.	2F#/	.	2A\	-cem	.	2f#/	.	.	2a/	.	.	2D\	.	2d\	.	2f#/	2a/	.	2.ryy	.	2.ryy	.	2.ryy	.	2.ryy	.	2.ryy	.
.	.	.	.	.	8.GG/L	8.b/L	4g\	8.GG/	.	.	8.G/	.	8.B\	do-	.	8.g/	.	.	8.b\	.	.	8.GG/L	.	8.G/L	.	8.g/L	8.b\L	.	.	.	.	.	.	.	.	.	.	.
.	.	.	.	.	16BB/Jk	16dd/Jk	.	16BB/	.	.	16G/	.	16d\	-na	.	16g/	.	.	16dd\	.	.	16BB/Jk	.	16B/Jk	.	16g/Jk	16dd\Jk	.	.	.	.	.	.	.	.	.	.	.
*	*	*	*	*	*	*v	*v	*	*	*	*	*	*	*	*	*	*	*	*	*	*	*	*	*	*	*	*	*	*	*	*	*	*	*	*	*	*	*
=34	=34	=34	=34	=34	=34	=34	=34	=34	=34	=34	=34	=34	=34	=34	=34	=34	=34	=34	=34	=34	=34	=34	=34	=34	=34	=34	=34	=34	=34	=34	=34	=34	=34	=34	=34	=34	=34
2.r	.	2.r	2.r	.	[>2.E\	2g/	2E\	.	.	2G/	.	2G/	no-	.	2g/	.	.	2g/	.	.	2E\	.	2e\	.	2g/	2g/	.	2.ryy	.	2.ryy	.	2.ryy	.	2.ryy	.	2.ryy	.
.	.	.	.	.	.	[>4g [<4e/	4E\	.	.	4E/	.	4G/	-bis	.	4e/	.	.	4g/	.	.	4E\	.	4e\	.	4e/	4g/	.	.	.	.	.	.	.	.	.	.	.
=35	=35	=35	=35	=35	=35	=35	=35	=35	=35	=35	=35	=35	=35	=35	=35	=35	=35	=35	=35	=35	=35	=35	=35	=35	=35	=35	=35	=35	=35	=35	=35	=35	=35	=35	=35	=35	=35
!	!	!	!	!	!	!	!LO:TX:a:t=P:problem=niejednoznaczne zakończenie łuku	!	!	!LO:TX:a:t=P:problem=niejednoznaczne zakończenie łuku	!	!LO:TX:a:t=P:problem=niejednoznaczne zakończenie łuku	!	!	!	!	!	!	!	!	!	!	!	!	!	!LO:TX:a:t=P:problem=brak zakończenia łuku	!	!	!	!	!	!	!	!	!	!	!
2.r	.	2.r	2.r	.	4E\]	4g] 4e/]	(>4E\	.	.	(<4E/	.	(>(<8.G/L	pa-	.	(>4e/	.	.	(<8.g/L	.	.	(>4E\	.	(>4e\	.	(>4e/	(>(<8.g/L	.	2.ryy	.	2.ryy	.	2.ryy	.	2.ryy	.	2.ryy	.
.	.	.	.	.	.	.	.	.	.	.	.	32A/LL	.	.	.	.	.	32a/LL	.	.	.	.	.	.	.	32a/LL	.	.	.	.	.	.	.	.	.	.	.
.	.	.	.	.	.	.	.	.	.	.	.	32G/JJJ	.	.	.	.	.	32g/JJJ	.	.	.	.	.	.	.	32g/JJJ	.	.	.	.	.	.	.	.	.	.	.
.	.	.	.	.	4BB/	4f# 4d#X/	4BB/	.	.	4D#X/	.	4F#/)	.	.	4d#X/)	.	.	4f#/	.	.	4BB/	.	4B/)	.	4d#X/)	4f#/)	.	.	.	.	.	.	.	.	.	.	.
.	.	.	.	.	4E\	4g 4e/	4E\	.	.	4E/	.	4G/	.	.	4e/	.	.	4g/)	.	.	4E\)	.	4e\	.	4e/	4g/	.	.	.	.	.	.	.	.	.	.	.
!!LO:PB:g=original
=36	=36	=36	=36	=36	=36	=36	=36	=36	=36	=36	=36	=36	=36	=36	=36	=36	=36	=36	=36	=36	=36	=36	=36	=36	=36	=36	=36	=36	=36	=36	=36	=36	=36	=36	=36	=36	=36
2.r	.	2.r	2.r	.	2D\	2a 2f#/	2D\)	.	.	2F#/)	.	2A/)	-cem	.	2f#/	.	.	2a/	.	.	2D\	.	2d\	.	2f#/	2a/)	.	2.ryy	.	2.ryy	.	2.ryy	.	2.ryy	.	2.ryy	.
.	.	.	.	.	8.G\L	8.g/L	8.G\	.	.	8.G/	.	8.G/	do-	.	8.g/	.	.	8.g/	.	.	8.G\L	.	8.g\L	.	8.g/L	8.g/	.	.	.	.	.	.	.	.	.	.	.
.	.	.	.	.	16D\Jk	16aJk 16f# 16d/	16D\	.	.	16F#/	.	16A/	-na	.	16f#/	.	.	16a/	.	.	16D\Jk	.	16d\Jk	.	16f#/Jk	16a/	.	.	.	.	.	.	.	.	.	.	.
=37	=37	=37	=37	=37	=37	=37	=37	=37	=37	=37	=37	=37	=37	=37	=37	=37	=37	=37	=37	=37	=37	=37	=37	=37	=37	=37	=37	=37	=37	=37	=37	=37	=37	=37	=37	=37	=37
2.r	.	2.r	2.r	.	2G\	2b 2g 2d/	2G\	.	.	2G/	.	2B\	no-	.	2g/	.	.	2b/	.	.	2G\	.	2g\	.	2g/	2b/	.	2.ryy	.	2.ryy	.	2.ryy	.	2.ryy	.	2.ryy	.
.	.	.	.	.	4E\	4g 4e/	4C/	.	.	4G/	.	4G/	-bis	.	4g/	.	.	4g/	.	.	4C/	.	4e\	.	4g/	4g/	.	.	.	.	.	.	.	.	.	.	.
=38	=38	=38	=38	=38	=38	=38	=38	=38	=38	=38	=38	=38	=38	=38	=38	=38	=38	=38	=38	=38	=38	=38	=38	=38	=38	=38	=38	=38	=38	=38	=38	=38	=38	=38	=38	=38	=38
*	*	*	*	*	*	*^	*	*	*	*	*	*	*	*	*	*	*	*	*	*	*	*	*	*	*	*	*	*	*	*	*	*	*	*	*	*	*
2.r	.	2.r	2.r	.	2AA/	4dd/	4.d\	(>2AA/	.	.	(<4.E/	.	(>4d\	pa-	.	(<4.e/	.	.	(>4dd\	.	.	2AA/	.	2A/	.	(<4.e/	(>4dd\	.	2.ryy	.	2.ryy	.	2.ryy	.	2.ryy	.	2.ryy	.
.	.	.	.	.	.	4cc/	.	.	.	.	.	.	4c\	.	.	.	.	.	4cc\	.	.	.	.	.	.	.	4cc\	.	.	.	.	.	.	.	.	.	.	.
.	.	.	.	.	.	.	8f#\	.	.	.	8F#/)	.	.	.	.	8f#/	.	.	.	.	.	.	.	.	.	8f#/	.	.	.	.	.	.	.	.	.	.	.	.
.	.	.	.	.	8GG/L	4b/	4g\	8GG/L	.	.	4G/	.	4B\)	.	.	4g/)	.	.	4b\)	.	.	(<8GG/L	.	(<8G/L	.	4g/)	4b\)	.	.	.	.	.	.	.	.	.	.	.
.	.	.	.	.	8BB/J	.	.	8BB/J)	.	.	.	.	.	.	.	.	.	.	.	.	.	8BB/J)	.	8B/J)	.	.	.	.	.	.	.	.	.	.	.	.	.	.
=39	=39	=39	=39	=39	=39	=39	=39	=39	=39	=39	=39	=39	=39	=39	=39	=39	=39	=39	=39	=39	=39	=39	=39	=39	=39	=39	=39	=39	=39	=39	=39	=39	=39	=39	=39	=39	=39	=39
2.r	.	2.r	2.r	.	2D\	2a/	2f#\	2D\	.	.	2F#/	.	2A\	-cem	.	2f#/	.	.	2a/	.	.	2D\	.	2d\	.	2f#/	2a/	.	4r	.	4r	.	4r	.	4r	.	4r	.
!	!	!	!	!	!	!	!	!	!	!	!	!	!	!	!	!	!	!	!	!	!LO:HP:a	!	!	!	!	!	!	!	!	!	!	!	!	!	!	!	!	!
.	.	.	.	.	.	.	.	.	.	.	.	.	.	.	.	.	.	.	.	.	<	.	.	.	.	.	.	.	4r	.	4r	.	4r	.	4r	.	4r	.
!	!	!	!	!	!	!	!	!	!	!	!	!	!	!	!	!	!	!	!	!	!	!	!	!	!	!	!	!	!	!	!	!	!	!	!	!LO:HP:a	!	!
.	.	.	.	.	8.G\L	8.bL 8.g/	4ryy	8.G\	.	.	8.G/	.	8.B\	do-	.	8.g/	.	.	8.b\	.	.	8.G\L	.	8.g\L	.	8.g/L	8.b\	.	8.G\L	.	8.ggL 8.g\	.	8.bL 8.g/	<	8.gg\L	<	8.bb\L	.
.	.	.	.	.	16Fn\Jk	16ddJk 16b 16g/	.	16Fn\	.	.	16B\	.	16d\	-na	.	16g/	.	.	16dd\	.	[[	16Fn\Jk	.	16g\Jk	.	16b/Jk	16dd\	.	16Fn\Jk	.	16ggJk 16g\	.	16ccJk 16a/	.	16bb\Jk	[[	16ddd\Jk	.
*	*	*	*	*	*	*v	*v	*	*	*	*	*	*	*	*	*	*	*	*	*	*	*	*	*	*	*	*	*	*	*	*	*	*	*	*	*	*	*
=40	=40	=40	=40	=40	=40	=40	=40	=40	=40	=40	=40	=40	=40	=40	=40	=40	=40	=40	=40	=40	=40	=40	=40	=40	=40	=40	=40	=40	=40	=40	=40	=40	=40	=40	=40	=40	=40
*	*	*	*	*	*	*	*	*	*	*	*	*	*	*	*	*	*	*	*	*	*tremolo	*	*	*	*	*	*	*	*	*	*	*	*	*	*	*	*
*	*	*	*	*	*	*	*	*	*	*	*	*	*	*	*	*	*	*	*	*	*	*	*tremolo	*	*	*	*	*	*	*	*	*	*	*	*	*	*
*	*	*	*	*	*	*	*	*	*	*	*	*	*	*	*	*	*	*	*	*	*	*	*	*	*tremolo	*	*	*	*	*	*	*	*	*	*	*	*
*	*	*2\right	*2\right	*	*	*	*	*	*	*	*	*	*	*	*	*	*	*	*	*	*	*	*	*	*	*tremolo	*	*	*	*2\right	*	*	*	*	*	*	*
!	!LO:DY:b:rj	!	!	!LO:DY:b:rj	!	!	!	!	!	!	!	!	!	!	!	!	!	!	!	!LO:DY:a:rj	!	!	!	!LO:DY:b:rj	!	!	!LO:DY:b:rj	!	!	!	!	!	!LO:DY:b	!	!LO:DY:a:rj	!	!
8C/L	f	2E\	2gg 2cc\	f	2E\	2gg 2cc 2g\	2E\	.	.	2c\	.	2g\	no-	.	2g/	.	.	2gg\	.	f	8E\L	.	8g\L	f	8cc\L	8gg\L	f	2E\	.	2gg 2g\	.	2gg 2cc\	f[	2ccc\	f	2ggg\	.
16C/L	.	.	.	.	.	.	.	.	.	.	.	.	.	.	.	.	.	.	.	.	8E\	.	8g\	.	8cc\	8gg\	.	.	.	.	.	.	.	.	.	.	.
16C/JJ	.	.	.	.	.	.	.	.	.	.	.	.	.	.	.	.	.	.	.	.	.	.	.	.	.	.	.	.	.	.	.	.	.	.	.	.	.
4C/	.	.	.	.	.	.	.	.	.	.	.	.	.	.	.	.	.	.	.	.	8E\	.	8g\	.	8cc\	8gg\	.	.	.	.	.	.	.	.	.	.	.
.	.	.	.	.	.	.	.	.	.	.	.	.	.	.	.	.	.	.	.	.	8E\J	.	8g\	.	8cc\J	8gg\J	.	.	.	.	.	.	.	.	.	.	.
4C/	.	4C/	4ee 4cc\	.	4C/	4ee 4cc 4g\	4C/	.	.	4c\	.	4e\	-bis	.	4g/	.	.	4ee\	.	.	8C/L	.	8g\	.	8cc\L	8ee\L	.	4C/	.	4gg 4g\	.	4ee 4cc\	.	4ccc\	.	4eee\	.
.	.	.	.	.	.	.	.	.	.	.	.	.	.	.	.	.	.	.	.	.	8C/J	.	8g\J	.	8cc\J	8ee\J	.	.	.	.	.	.	.	.	.	.	.
!!LO:PB:g=original
=41	=41	=41	=41	=41	=41	=41	=41	=41	=41	=41	=41	=41	=41	=41	=41	=41	=41	=41	=41	=41	=41	=41	=41	=41	=41	=41	=41	=41	=41	=41	=41	=41	=41	=41	=41	=41	=41
*	*	*	*^	*	*	*	*	*	*	*	*	*	*	*	*	*	*	*	*	*	*	*	*	*	*	*	*	*	*	*^	*	*	*	*	*	*	*
*	*	*	*	*	*	*	*	*	*	*	*	*	*	*	*	*	*	*	*	*	*	*	*	*	*	*	*Xtremolo	*	*	*	*	*	*	*	*	*	*	*	*
!	!	!	!	!	!	!	!	!	!	!	!	!	!	!	!	!	!	!	!	!	!	!	!	!	!	!	!	!	!	!	!	!	!	!	!	!LO:TX:a:t=P:problem=niejednoznaczne zakończenie łuku	!	!	!
2.r	.	2D\	2dd/	2dd\	.	(<2D/	(>4.dd 4.b\	2.D\	.	.	(>4.B\	.	(>4.d\	pa-	.	(>4.b/	.	.	(>4.dd\	.	.	8D\L	.	8d\L	.	8b'</L	8dd'>\L	.	2D\	.	2dd/	2dd\	.	(>4.dd 4.b\	.	(>4.bb\	.	(>4.ddd\	.
.	.	.	.	.	.	.	.	.	.	.	.	.	.	.	.	.	.	.	.	.	.	8D\	.	8d\	.	8b'</	8dd'>\	.	.	.	.	.	.	.	.	.	.	.	.
.	.	.	.	.	.	.	.	.	.	.	.	.	.	.	.	.	.	.	.	.	.	8D\	.	8d\	.	8b'</	8dd'>\J	.	.	.	.	.	.	.	.	.	.	.	.
.	.	.	.	.	.	.	8bL 8g/	.	.	.	8G/L	.	8B\L	.	.	8g/L	.	.	(>8b\L	.	.	8D\	.	8d\	.	(<8g/	(>8b\L	.	.	.	.	.	.	8bL 8g/	.	8gg\L	.	8bb\L	.
.	.	4D\	4dd/	4dd\	.	4D 4DD/)	8cc 8a/	.	.	.	8A/	.	8c\	.	.	8a/	.	.	8cc\	.	.	8D\	.	8d\	.	8a/	8cc\	.	4D\	.	4dd/	4dd\	.	8cc 8a/	.	8aa\	.	8ccc\	.
.	.	.	.	.	.	.	8ddJ 8f#/	.	.	.	8F#/J)	.	8d\J)	.	.	8f#/J)	.	.	8dd\J))	.	.	8D\J	.	8d\J	.	8f#/J)	8dd\J)	.	.	.	.	.	.	8ddJ 8f#/)	.	8ff#\J	.	8ddd\J	.
*	*	*	*v	*v	*	*	*	*	*	*	*	*	*	*	*	*	*	*	*	*	*	*	*	*	*	*	*	*	*	*	*v	*v	*	*	*	*	*	*	*
=42	=42	=42	=42	=42	=42	=42	=42	=42	=42	=42	=42	=42	=42	=42	=42	=42	=42	=42	=42	=42	=42	=42	=42	=42	=42	=42	=42	=42	=42	=42	=42	=42	=42	=42	=42	=42	=42
*	*	*	*	*	*	*^	*	*	*	*	*	*	*	*	*	*	*	*	*	*	*	*	*	*	*	*	*	*	*	*	*	*	*	*	*	*	*
2.r	.	2G\	2dd 2g/	.	2G\ 2GG\	2b 2g/)	2ryy	2G\	.	.	2G/	.	2B\	-cem	.	2g/	.	.	2b/	.	.	2G\	.	2g\	.	2g/	2b\	.	2G\	.	2dd 2g/	.	2b 2g/	.	2gg\)	.	2bb\)	.
*	*	*	*	*	*	*	*	*	*	*	*	*	*	*	*	*	*	*	*Xtuplet	*	*	*	*	*	*	*	*	*	*	*	*	*	*	*	*	*	*	*
.	.	4r	4r	.	16G\LL	16b/LL	16g\LL	16G\LL	.	.	(<16G/LL	.	(>16B\LL	do-	.	(<16g/LL	.	.	(<20b/LL	.	.	16G\LL	.	(>16g\LL	.	(<16g/LL	(>16b\LL	.	(>16G\LL	.	4r	.	(<16bLL 16g/	.	(>16gg\LL	.	(>16bb\LL	.
.	.	.	.	.	.	.	.	.	.	.	.	.	.	.	.	.	.	.	20g/	.	.	.	.	.	.	.	.	.	.	.	.	.	.	.	.	.	.	.
.	.	.	.	.	16D\	16a/	16f#\J	16D\	.	.	16F#/	.	16A\	.	.	16f#/	.	.	.	.	.	16D\	.	16d\	.	16f#/	16a\	.	16D\	.	.	.	16a 16f#/	.	16ff#\	.	16aa\	.
.	.	.	.	.	.	.	.	.	.	.	.	.	.	.	.	.	.	.	20a/	.	.	.	.	.	.	.	.	.	.	.	.	.	.	.	.	.	.	.
.	.	.	.	.	16G\	16b/	8g\J	16G\JJ	.	.	16G/JJ)	.	16B\JJ)	.	.	16g/JJ)	.	.	.	.	.	16G\	.	16g\	.	16g/	16b\	.	16G\	.	.	.	16b 16g/	.	16gg\	.	16bb\	.
.	.	.	.	.	.	.	.	.	.	.	.	.	.	.	.	.	.	.	20b/JJ)	.	.	.	.	.	.	.	.	.	.	.	.	.	.	.	.	.	.	.
.	.	.	.	.	16Fn\JJ	16dd/JJ	.	16Fn\	.	.	16B\	.	16d\	-na	.	16b/	.	.	.	.	.	16Fn\JJ	.	16fn\JJ)	.	16b/JJ)	16dd\JJ)	.	16Fn\JJ)	.	.	.	16ddJJ 16b/	.	16bb\JJ	.	16ddd\JJ	.
.	.	.	.	.	.	.	.	.	.	.	.	.	.	.	.	.	.	.	20dd\	.	.	.	.	.	.	.	.	.	.	.	.	.	.	.	.	.	.	.
*	*	*	*	*	*	*v	*v	*	*	*	*	*	*	*	*	*	*	*	*	*	*	*	*	*	*	*	*	*	*	*	*	*	*	*	*	*	*	*
=43	=43	=43	=43	=43	=43	=43	=43	=43	=43	=43	=43	=43	=43	=43	=43	=43	=43	=43	=43	=43	=43	=43	=43	=43	=43	=43	=43	=43	=43	=43	=43	=43	=43	=43	=43	=43	=43
*	*	*	*	*	*	*	*	*	*	*	*	*	*	*	*	*	*	*	*	*	*	*	*	*	*	*tremolo	*	*	*	*	*	*	*	*	*	*	*
8C/L	.	2E\	2gg 2g\	.	2E\	2gg 2cc 2g\	2E\	.	.	2c\	.	2g\	no-	.	2cc\	.	.	2gg\	.	.	8E\L	.	8e\L	.	8cc\L	8gg\L	.	2E\	.	2gg 2g\	.	2gg 2cc\)	.	2ccc\)	.	2ggg\)	.
16C/L	.	.	.	.	.	.	.	.	.	.	.	.	.	.	.	.	.	.	.	.	8E\	.	8g\	.	8cc\	8gg\	.	.	.	.	.	.	.	.	.	.	.
16C/JJ	.	.	.	.	.	.	.	.	.	.	.	.	.	.	.	.	.	.	.	.	.	.	.	.	.	.	.	.	.	.	.	.	.	.	.	.	.
4C/	.	.	.	.	.	.	.	.	.	.	.	.	.	.	.	.	.	.	.	.	8E\	.	8g\	.	8cc\	8gg\	.	.	.	.	.	.	.	.	.	.	.
.	.	.	.	.	.	.	.	.	.	.	.	.	.	.	.	.	.	.	.	.	8E\J	.	8g\J	.	8cc\J	8gg\J	.	.	.	.	.	.	.	.	.	.	.
4GG/	.	4C#X/	4ee 4g/	.	4C#X/	4ee 4a#X 4g\	4C#X/	.	.	4A#X\	.	4e\	-bis	.	4a#X/	.	.	4ee\	.	.	8C#X/L	.	8g\L	.	8a#X/L	8ee\L	.	4C#X/	.	4gg 4g\	.	4ee 4a#X\	.	4aa#X\	.	4eee\	.
.	.	.	.	.	.	.	.	.	.	.	.	.	.	.	.	.	.	.	.	.	8C#X/J	.	8g\J	.	8a#X/J	8ee\J	.	.	.	.	.	.	.	.	.	.	.
*	*	*	*	*	*	*	*	*	*	*	*	*	*	*	*	*	*	*	*	*	*	*	*	*	*	*Xtremolo	*	*	*	*	*	*	*	*	*	*	*
=44	=44	=44	=44	=44	=44	=44	=44	=44	=44	=44	=44	=44	=44	=44	=44	=44	=44	=44	=44	=44	=44	=44	=44	=44	=44	=44	=44	=44	=44	=44	=44	=44	=44	=44	=44	=44	=44
*	*	*	*^	*	*	*	*	*	*	*	*	*	*	*	*	*	*	*	*	*	*	*	*	*	*	*	*	*	*	*^	*	*	*	*	*	*	*
!	!	!	!	!	!	!	!	!	!	!	!	!	!	!	!	!LO:TX:a:t=P:problem=niejednoznaczne zakończenie łuku	!	!	!	!	!	!	!	!	!	!	!	!	!	!	!	!	!	!	!	!	!	!	!
2.r	.	2D\	2dd/	2dd\	.	(<2D/	4.dd 4.b\	2.D\	.	.	(>4.B\	.	(>4.d\	pa-	.	(>4.b/	.	.	(>4.dd\	.	.	8D\L	.	8g\L	.	8b'</L	8dd\L	.	2D\	.	2dd/	2dd\	.	(>4.dd 4.b\	.	(>4.bb\	.	(>4.ddd\	.
.	.	.	.	.	.	.	.	.	.	.	.	.	.	.	.	.	.	.	.	.	.	8D\	.	8g\	.	8b'</	8dd\	.	.	.	.	.	.	.	.	.	.	.	.
.	.	.	.	.	.	.	.	.	.	.	.	.	.	.	.	.	.	.	.	.	.	8D\	.	8g\	.	8b'</	8dd\J	.	.	.	.	.	.	.	.	.	.	.	.
.	.	.	.	.	.	.	8ccL 8a/	.	.	.	8A/L	.	8c\L	.	.	8a/L	.	.	8cc/L	.	.	8D\	.	8d\	.	(<8a/	(<8cc/L	.	.	.	.	.	.	8ccL 8a/	.	8aa\L	.	8ccc\L	.
.	.	4D\	4dd/	4dd\	.	4D 4DD/)	8b 8g/	.	.	.	8G/	.	8B\	.	.	8g/	.	.	8b/	.	.	8D\	.	8d\	.	8g/	8b/	.	4D\	.	4dd/	4dd\	.	8b 8g/	.	8gg\	.	8bb\	.
.	.	.	.	.	.	.	8aJ 8f#/	.	.	.	8F#/J	.	8A\J)	.	.	8f#/J	.	.	8a/J	.	.	8D\J	.	8d\J	.	8f#/J)	8a/J	.	.	.	.	.	.	8aJ 8f#/	.	8ff#\J	.	8aa\J	.
=45	=45	=45	=45	=45	=45	=45	=45	=45	=45	=45	=45	=45	=45	=45	=45	=45	=45	=45	=45	=45	=45	=45	=45	=45	=45	=45	=45	=45	=45	=45	=45	=45	=45	=45	=45	=45	=45	=45	=45
2.r	.	2G\	2g/	2g\	.	2G 2GG/	2g/	2G\	.	.	2G/)	.	2G/	cem	.	2g/)	.	.	2g/)	.	.	2G\	.	2g\	.	2g/	2g/)	.	2G\	.	2g/	2g\	.	2g/)	.	2gg\)	.	2gg\)	.
!	!	!	!	!	!	!	!	!	!	!	!	!	!	!	!	!	!	!	!	!	!	!	!LO:DY:a:rj	!	!	!	!	!	!	!	!	!	!	!	!	!	!	!	!
.	.	4r	4r	4ryy	.	4Fn\	4r	8.Fn\	do-	.	4r	.	4r	.	.	4r	.	.	4r	.	.	8.Fn\L	p	8.fn\L	.	4r	4r	.	4r	.	4r	4ryy	.	4r	.	4r	.	4r	.
.	.	.	.	.	.	.	.	16F\	-na	.	.	.	.	.	.	.	.	.	.	.	.	16F\Jk	.	16f\Jk	.	.	.	.	.	.	.	.	.	.	.	.	.	.	.
*	*	*	*v	*v	*	*	*	*	*	*	*	*	*	*	*	*	*	*	*	*	*	*	*	*	*	*	*	*	*	*	*v	*v	*	*	*	*	*	*	*
!!LO:PB:g=original
=46	=46	=46	=46	=46	=46	=46	=46	=46	=46	=46	=46	=46	=46	=46	=46	=46	=46	=46	=46	=46	=46	=46	=46	=46	=46	=46	=46	=46	=46	=46	=46	=46	=46	=46	=46	=46	=46
!LO:TX:t=P:problem=jedna pauza wielotaktowa (2 ukośne kreski)	!	!LO:TX:t=P:problem=jedna pauza wielotaktowa (2 ukośne kreski)	!LO:TX:b:t=7	!	!	!	!	!	!	!	!	!	!	!	!	!	!	!	!	!	!	!	!	!	!	!	!	!	!	!	!	!	!	!	!	!	!
!	!	!	!LO:N:vos=00	!	!	!	!	!	!	!	!	!	!	!	!	!	!	!	!	!	!	!	!	!	!	!	!	!	!	!	!	!	!	!	!	!	!
2.r	.	2.r	0.r	.	2E\	4r	2E\	no-	.	4r	.	4r	.	.	4r	.	.	4r	.	.	2E\	.	2e\	.	4r	4r	.	4r	.	4r	.	4r	.	2.ryy	.	2.ryy	.
.	.	.	.	.	.	4r	.	.	.	4r	.	4r	.	.	4r	.	.	4r	.	.	.	.	.	.	4r	4r	.	2r	.	4r	.	4r	.	.	.	.	.
!	!	!	!	!	!	!	!	!	!	!	!	!	!	!	!	!	!	!	!	!LO:DY:b:rj	!	!	!	!	!	!	!	!	!	!	!	!	!LO:DY:b:rj	!	!	!	!
.	.	.	.	.	4E-X\	8.g/L	4E-X\	-bis	.	8.G/	.	8.G/	do-	.	8.g/	.	.	8.g/	.	p	8.E-X\L	.	8.e-X\L	.	8.g/L	8.g/L	.	.	.	8.cc\L	.	8.g/L	p	.	.	.	.
.	.	.	.	.	.	16aJk 16g/	.	.	.	16G/	.	16A/	-na	.	16g/	.	.	16a/	.	.	16E-\Jk	.	16e-\Jk	.	16g/Jk	16a/Jk	.	.	.	16cc\Jk	.	16aJk 16g/	.	.	.	.	.
=47	=47	=47	=47	=47	=47	=47	=47	=47	=47	=47	=47	=47	=47	=47	=47	=47	=47	=47	=47	=47	=47	=47	=47	=47	=47	=47	=47	=47	=47	=47	=47	=47	=47	=47	=47	=47	=47
*	*	*	*	*	*	*^	*	*	*	*	*	*	*	*	*	*	*	*	*	*	*	*	*	*	*	*	*	*	*	*	*	*	*	*	*	*	*
*	*	*	*	*	*	*	*	*	*	*	*	*	*	*	*	*	*	*	*	*	*	*	*	*	*	*	*tremolo	*	*	*	*	*	*	*	*	*	*	*
2.r	.	2.r	.	.	2.D\	2.b	[<2.g\	2D\	pa-	.	2G/	.	2B\	no-	.	2g/	.	.	2b/	.	.	8D\L	.	8d\L	.	8g/L	8b/L	.	2.r	.	2dd\	.	2b 2g/	.	2.ryy	.	2.ryy	.
.	.	.	.	.	.	.	.	.	.	.	.	.	.	.	.	.	.	.	.	.	.	8D\	.	8d\	.	8g/	8b/	.	.	.	.	.	.	.	.	.	.	.
.	.	.	.	.	.	.	.	.	.	.	.	.	.	.	.	.	.	.	.	.	.	8D\	.	8d\	.	8g/	8b/	.	.	.	.	.	.	.	.	.	.	.
.	.	.	.	.	.	.	.	.	.	.	.	.	.	.	.	.	.	.	.	.	.	8D\	.	8d\	.	8g/	8b/	.	.	.	.	.	.	.	.	.	.	.
.	.	.	.	.	.	.	.	4D\	-cem	.	4G/	.	4B\	-bis	.	4g/	.	.	4b/	.	.	8D\	.	8d\	.	8g/	8b/	.	.	.	4dd\	.	(<4b 4g/	.	.	.	.	.
.	.	.	.	.	.	.	.	.	.	.	.	.	.	.	.	.	.	.	.	.	.	8D\J	.	8d\J	.	8g/J	8b/J	.	.	.	.	.	.	.	.	.	.	.
=48	=48	=48	=48	=48	=48	=48	=48	=48	=48	=48	=48	=48	=48	=48	=48	=48	=48	=48	=48	=48	=48	=48	=48	=48	=48	=48	=48	=48	=48	=48	=48	=48	=48	=48	=48	=48	=48	=48
*	*	*	*	*	*	*	*	*	*	*	*	*	*	*	*	*	*	*	*	*	*	*	*	*	*	*	*	*	*	*	*	*	*^	*	*	*	*	*
2.r	.	2.r	.	.	2.D 2.DD/	2a/	4g\]	2.D\	pa-	.	(<4G/	.	(>2A\	pa-	.	(>4g/	.	.	(>2a/	.	.	8D\L	.	8d\L	.	8g'</L	8a/L	.	2.r	.	2.dd\	.	2a/	4g\	.	2.ryy	.	2.ryy	.
.	.	.	.	.	.	.	.	.	.	.	.	.	.	.	.	.	.	.	.	.	.	8D\	.	8d\	.	(<8g/	8a/	.	.	.	.	.	.	.	.	.	.	.	.
.	.	.	.	.	.	.	8f#\L	.	.	.	8F#/L	.	.	.	.	8f#/L	.	.	.	.	.	8D\	.	8d\	.	8f#/	8a/	.	.	.	.	.	.	8f#\L	.	.	.	.	.
.	.	.	.	.	.	.	8e\J	.	.	.	8E/J	.	.	.	.	8e/J	.	.	.	.	.	8D\	.	8d\	.	8e/J)	8a/J	.	.	.	.	.	.	8e\J	.	.	.	.	.
.	.	.	.	.	.	4dd/	4f#\	.	.	.	4F#/)	.	4d\)	.	.	4f#/)	.	.	4dd\)	.	.	8D\	.	8d\	.	8f#/L	8dd\L	.	.	.	.	.	4dd/	4f#\)	.	.	.	.	.
.	.	.	.	.	.	.	.	.	.	.	.	.	.	.	.	.	.	.	.	.	.	8D\J	.	8d\J	.	8f#/J	8dd\J	.	.	.	.	.	.	.	.	.	.	.	.
*	*	*	*	*	*	*v	*v	*	*	*	*	*	*	*	*	*	*	*	*	*	*	*	*	*	*	*	*	*	*	*	*	*	*	*	*	*	*	*	*
=49	=49	=49	=49	=49	=49	=49	=49	=49	=49	=49	=49	=49	=49	=49	=49	=49	=49	=49	=49	=49	=49	=49	=49	=49	=49	=49	=49	=49	=49	=49	=49	=49	=49	=49	=49	=49	=49	=49
2.r	.	2.r	.	.	2G 2GG/	2g/	2G\	-cem	.	2G/	.	2B\	-cem	.	2g/	.	.	2b\	.	.	2G\	.	2g\	.	2g/	2b\	.	2.r	.	2dd 2g/	.	2b/	2g\	.	2.ryy	.	2.ryy	.
.	.	.	.	.	4Fn 4FFn/	4r	8.Fn\	do-	.	4r	.	4r	.	.	4r	.	.	4r	.	.	8.Fn\L	.	8.fn\L	.	4r	4r	.	.	.	4r	.	4r	4ryy	.	.	.	.	.
.	.	.	.	.	.	.	16F\	-na	.	.	.	.	.	.	.	.	.	.	.	.	16F\Jk	.	16f\Jk	.	.	.	.	.	.	.	.	.	.	.	.	.	.	.
*	*	*	*	*	*	*	*	*	*	*	*	*	*	*	*	*	*	*	*	*	*	*	*	*	*	*	*	*	*	*	*	*v	*v	*	*	*	*	*
=50	=50	=50	=50	=50	=50	=50	=50	=50	=50	=50	=50	=50	=50	=50	=50	=50	=50	=50	=50	=50	=50	=50	=50	=50	=50	=50	=50	=50	=50	=50	=50	=50	=50	=50	=50	=50	=50
!	!	!	!LO:N:vis=0	!	!	!	!	!	!	!	!	!	!	!	!	!	!	!	!	!	!	!	!	!	!	!	!	!	!	!	!	!	!	!	!	!	!
2.r	.	2.r	1.r	.	2E 2EE/	4r	2E\	no-	.	4r	.	4r	.	.	4r	.	.	4r	.	.	2E\	.	2e\	.	4r	4r	.	2.r	.	4r	.	4r	.	2.ryy	.	2.ryy	.
.	.	.	.	.	.	4r	.	.	.	4r	.	4r	.	.	4r	.	.	4r	.	.	.	.	.	.	4r	4r	.	.	.	4r	.	4r	.	.	.	.	.
.	.	.	.	.	4E-X 4EE-X/	8.g/L	4E-X\	-bis	.	8.G/	.	8.G/	do-	.	8.g/	.	.	8.g/	.	.	8.E-X\L	.	8.e-X\L	.	8.g/L	8.g/L	.	.	.	8.cc\L	.	8.g/L	.	.	.	.	.
.	.	.	.	.	.	16aJk 16g/	.	.	.	16G/	.	16A/	-na	.	16g/	.	.	16a/	.	.	16E-\Jk	.	16e-\Jk	.	16g/Jk	16a/Jk	.	.	.	16cc\Jk	.	16aJk 16g/	.	.	.	.	.
!!LO:PB:g=original
=51	=51	=51	=51	=51	=51	=51	=51	=51	=51	=51	=51	=51	=51	=51	=51	=51	=51	=51	=51	=51	=51	=51	=51	=51	=51	=51	=51	=51	=51	=51	=51	=51	=51	=51	=51	=51	=51
*	*	*	*	*	*	*^	*	*	*	*	*	*	*	*	*	*	*	*	*	*	*	*	*	*	*	*	*	*	*	*^	*	*	*	*	*	*	*
2.r	.	2.r	.	.	[>2.D [<2.DD/	2.b/	2.g\	2D\	.	.	2G/	.	2B\	no-	.	2g/	.	.	2b/	.	.	8D\L	.	8d\L	.	8g/L	8b\L	.	2.r	.	2dd/	2dd\	.	2b 2g/	.	2.r	.	2.r	.
.	.	.	.	.	.	.	.	.	.	.	.	.	.	.	.	.	.	.	.	.	.	8D\	.	8d\	.	8g/	8b\	.	.	.	.	.	.	.	.	.	.	.	.
.	.	.	.	.	.	.	.	.	.	.	.	.	.	.	.	.	.	.	.	.	.	8D\	.	8d\	.	8g/	8b\	.	.	.	.	.	.	.	.	.	.	.	.
.	.	.	.	.	.	.	.	.	.	.	.	.	.	.	.	.	.	.	.	.	.	8D\	.	8d\	.	8g/	8b\	.	.	.	.	.	.	.	.	.	.	.	.
.	.	.	.	.	.	.	.	4D\	.	.	4G/	.	4B\	-bis	.	4g/	.	.	4b/	.	.	8D\	.	8d\	.	8g/	8b\	.	.	.	4dd/	4dd\	.	4b 4g/	.	.	.	.	.
.	.	.	.	.	.	.	.	.	.	.	.	.	.	.	.	.	.	.	.	.	.	8D\J	.	8d\J	.	8g/J	8b\J	.	.	.	.	.	.	.	.	.	.	.	.
=52	=52	=52	=52	=52	=52	=52	=52	=52	=52	=52	=52	=52	=52	=52	=52	=52	=52	=52	=52	=52	=52	=52	=52	=52	=52	=52	=52	=52	=52	=52	=52	=52	=52	=52	=52	=52	=52	=52	=52
*	*	*	*	*	*	*	*	*	*	*	*	*	*	*	*	*	*	*	*	*	*	*	*	*	*	*	*	*	*	*	*	*	*	*^	*	*	*	*	*
!	!	!	!LO:N:vis=1	!	!	!	!	!	!	!	!	!	!	!	!	!	!	!	!	!	!	!	!	!	!	!	!	!	!	!	!	!	!	!	!	!	!	!	!	!
2.r	.	2.r	2.r	.	2.D] 2.DD/]	2a/	4g\	[>2D\	.	.	(<4G/	.	(>2A\	pa-	.	(>4g/	.	.	(>2a/	.	.	8D\L	.	8d\L	.	8g'</L	8a/L	.	2.r	.	2.dd/	2.dd\	.	(>2a/	4g\	.	2.r	.	2.r	.
.	.	.	.	.	.	.	.	.	.	.	.	.	.	.	.	.	.	.	.	.	.	8D\	.	8d\	.	8g'</	8a/	.	.	.	.	.	.	.	.	.	.	.	.	.
.	.	.	.	.	.	.	8f#\L	.	.	.	8F#/L	.	.	.	.	8f#/L	.	.	.	.	.	8D\	.	8d\	.	(<8f#/	8a/	.	.	.	.	.	.	.	8f#\L	.	.	.	.	.
.	.	.	.	.	.	.	8e\J	.	.	.	8E/J	.	.	.	.	8e/J	.	.	.	.	.	8D\	.	8d\	.	8e/J)	8a/J	.	.	.	.	.	.	.	8e\J	.	.	.	.	.
.	.	.	.	.	.	4dd/	4f#\	4D\]	.	.	4F#/)	.	4d\)	.	.	4f#/)	.	.	4dd\)	.	.	8D\	.	8d\	.	8f#/L	8dd\L	.	.	.	.	.	.	4dd/)	4f#\	.	.	.	.	.
.	.	.	.	.	.	.	.	.	.	.	.	.	.	.	.	.	.	.	.	.	.	8D\J	.	8d\J	.	8f#/J	8dd\J	.	.	.	.	.	.	.	.	.	.	.	.	.
*	*	*	*	*	*	*v	*v	*	*	*	*	*	*	*	*	*	*	*	*	*	*	*	*	*	*	*	*	*	*	*	*	*	*	*	*	*	*	*	*	*
=53	=53	=53	=53	=53	=53	=53	=53	=53	=53	=53	=53	=53	=53	=53	=53	=53	=53	=53	=53	=53	=53	=53	=53	=53	=53	=53	=53	=53	=53	=53	=53	=53	=53	=53	=53	=53	=53	=53	=53
*	*	*	*^	*	*	*	*	*	*	*	*	*	*	*	*	*	*	*	*	*	*	*	*	*	*	*	*	*	*	*	*	*	*	*	*	*	*	*	*
4r	.	4r	4r	4.ryy	.	4.G 4.GG/	4.g/	4.G\	.	.	4.G/	.	4.G/	-cem	.	4.g/	.	.	4.g/	.	.	4.G\	.	4.g\	.	4.g/	4.g/	.	4r	.	4.g/	4.g\	.	4.g/	4.g\	.	4r	.	4r	.
8r	.	8r	8r	.	.	.	.	.	.	.	.	.	.	.	.	.	.	.	.	.	.	.	.	.	.	.	.	.	8r	.	.	.	.	.	.	.	8r	.	8r	.
!	!	!	!	!	!	!	!	!	!	!	!	!	!	!	!LO:DY:a:rj	!	!	!	!	!	!LO:DY:a:rj	!	!LO:DY:b:rj	!	!LO:DY:b:rj	!	!	!	!	!LO:DY:b:rj	!	!	!	!	!	!LO:DY:b:rj	!	!	!	!LO:DY:a:rj
8GG/L	.	8G\L	8g/L	4g\	.	8G\L	8g/L	8G\L	.	.	4G/	.	8G\L	do-	f	4g/	.	.	8g/L	.	f	8G\L	f	8g\L	f	4g/	(<8g/L	.	8G\L	f	8g/L	4g\	.	(>8g/L	4g\	f	4gg\	.	(>8gg\L	f
8C/	.	8E\	8cc/	.	.	8E\	8cc 8g/	8E\J	.	.	.	.	8c\J	.	.	.	.	.	8cc/J	.	.	8E\	.	8e\	.	.	8cc/)	.	8E\	.	8cc/	.	.	8cc/)	.	.	.	.	8ccc\)	.
8C/J	.	8C\J	8ee/J	8cc\	.	8C\J	8eeJ 8cc 8g/	8C/	.	.	8c\	.	8e\	-na	.	8cc\	.	.	8ee\	.	.	8C\J	.	8c\J	.	8cc\	8ee'</J	.	8C\J	.	8ee/J	8cc\	.	8ee'>/J	8cc\	.	8ccc\	.	8eee'>\J	.
*	*	*	*	*	*	*	*	*	*	*	*	*	*	*	*	*	*	*	*	*	*	*	*	*	*	*	*	*	*	*	*v	*v	*	*	*	*	*	*	*	*
=54	=54	=54	=54	=54	=54	=54	=54	=54	=54	=54	=54	=54	=54	=54	=54	=54	=54	=54	=54	=54	=54	=54	=54	=54	=54	=54	=54	=54	=54	=54	=54	=54	=54	=54	=54	=54	=54	=54	=54
*tremolo	*	*	*	*	*	*	*	*	*	*	*	*	*	*	*	*	*	*	*	*	*	*	*	*	*	*	*	*	*	*	*	*	*	*	*	*	*	*	*
32GG/LLL	.	4GG/	4dd 4g/	2.ryy	.	4.G 4.GG/	4.dd 4.b 4.g/	4G\	.	.	4B\	.	4d\	no-	.	4b\	.	.	4dd\	.	.	4G\	.	4g\	.	4b\	4dd\	.	4G\	.	4dd 4g/	.	4dd/	4b\	.	4bb\	.	4ddd\	.
32GG/	.	.	.	.	.	.	.	.	.	.	.	.	.	.	.	.	.	.	.	.	.	.	.	.	.	.	.	.	.	.	.	.	.	.	.	.	.	.	.
32GG/	.	.	.	.	.	.	.	.	.	.	.	.	.	.	.	.	.	.	.	.	.	.	.	.	.	.	.	.	.	.	.	.	.	.	.	.	.	.	.
32GG/	.	.	.	.	.	.	.	.	.	.	.	.	.	.	.	.	.	.	.	.	.	.	.	.	.	.	.	.	.	.	.	.	.	.	.	.	.	.	.
32GG/	.	.	.	.	.	.	.	.	.	.	.	.	.	.	.	.	.	.	.	.	.	.	.	.	.	.	.	.	.	.	.	.	.	.	.	.	.	.	.
32GG/	.	.	.	.	.	.	.	.	.	.	.	.	.	.	.	.	.	.	.	.	.	.	.	.	.	.	.	.	.	.	.	.	.	.	.	.	.	.	.
32GG/	.	.	.	.	.	.	.	.	.	.	.	.	.	.	.	.	.	.	.	.	.	.	.	.	.	.	.	.	.	.	.	.	.	.	.	.	.	.	.
32GG/JJJ	.	.	.	.	.	.	.	.	.	.	.	.	.	.	.	.	.	.	.	.	.	.	.	.	.	.	.	.	.	.	.	.	.	.	.	.	.	.	.
*Xtremolo	*	*	*	*	*	*	*	*	*	*	*	*	*	*	*	*	*	*	*	*	*	*	*	*	*	*	*	*	*	*	*	*	*	*	*	*	*	*	*
8GG/	.	8GG/	8dd 8g/	.	.	.	.	8G\	.	.	8B\	.	8d\	-bis	.	8b\	.	.	8dd\	.	.	8G\	.	8g\	.	8b\	8dd\	.	8G\	.	8dd 8g/	.	8dd/	8b\	.	8bb\	.	8ddd\	.
!	!	!	!	!	!	!	!	!	!	!	!	!	!	!	!LO:DY:a:rj	!	!	!	!	!	!LO:DY:a:rj	!	!LO:DY:b:rj	!	!LO:DY:b:rj	!	!	!LO:DY:b:rj	!	!	!	!	!	!	!	!	!	!	!
8r	.	8r	8r	.	.	8G\L	8g/L	8G\L	.	.	4G/	.	8G\L	do-	p	4g/	.	.	8g/L	.	p	8G\L	p	8g\L	p	4g/	(<8g/L	p	8r	.	8r	.	8r	8ryy	.	8r	.	8r	.
4r	.	4r	4r	.	.	8E-X\	8cc/	8E-X\J	.	.	.	.	8c\J	.	.	.	.	.	8cc/J	.	.	8E-X\	.	8e-X\	.	.	8cc/)	.	4r	.	4r	.	4r	4ryy	.	4r	.	4r	.
.	.	.	.	.	.	8C\J	8ee-X/J	8C/	.	.	8c\	.	8e-X\	-na	.	8cc\	.	.	8ee-X\	.	.	8C\J	.	8c\J	.	8cc\	8ee-X'</J	.	.	.	.	.	.	.	.	.	.	.	.
=55	=55	=55	=55	=55	=55	=55	=55	=55	=55	=55	=55	=55	=55	=55	=55	=55	=55	=55	=55	=55	=55	=55	=55	=55	=55	=55	=55	=55	=55	=55	=55	=55	=55	=55	=55	=55	=55	=55	=55
*	*	*	*	*	*	*	*	*	*	*	*	*	*	*	*	*	*	*	*	*	*	*	*	*	*	*	*	*	*	*	*^	*	*	*	*	*	*	*	*
4r	.	4r	4r	4.ryy	.	4.G 4.GG/	4.dd 4.b 4.g/	4G\	.	.	4B\	.	4d\	no-	.	4b\	.	.	4dd\	.	.	4G\	.	4g\	.	4b\	4dd\	.	4r	.	4r	4.ryy	.	4r	4.ryy	.	4r	.	4r	.
8r	.	8r	8r	.	.	.	.	8G\	.	.	8B\	.	8d\	-bis	.	8b\	.	.	8dd\	.	.	8G\	.	8g\	.	8b\	8dd\	.	8r	.	8r	.	.	8r	.	.	8r	.	8r	.
!	!	!	!	!	!	!	!	!	!	!LO:DY:a:rj	!	!	!	!	!LO:DY:a:rj	!	!	!	!	!	!LO:DY:a:rj	!	!LO:DY:b:rj	!	!	!	!	!LO:DY:b:rj	!	!	!LO:TX:a:t=P:problem=w źródle nuta zapisana w partii klarnetu	!	!	!	!	!LO:DY:b:rj	!	!	!	!LO:DY:a:rj
8GG/L	.	8G\L	8dd/L	4g\	.	8G\L	8ddL 8b\	8G\L	.	f	4B\	.	(>8d\L	do-	f	4b/	.	.	8dd\L	.	f	8G\L	f	8g\L	.	4b/	(>8dd\L	f	8G\L	.	8ggyyL	4gg 4g\	.	8dd/L	4b\	f	4bb\	.	(>8ddd\L	f
8GG/	.	8E\	8gg/	.	.	8En\	8gg 8b\	8En\J	.	.	.	.	8g\J)	.	.	.	.	.	8gg\J	.	.	8En\	.	8en\	.	.	8gg\)	.	8E\	.	8ee/	.	.	8gg/	.	.	.	.	8ggg\)	.
8GG/J	.	8D\J	8dd/J	8g\	.	8D\J	8bJ 8g\	8D\	.	.	8G/	.	8B\	-na	.	8g/	.	.	8b\	.	.	8D\J	.	8d\J	.	8g/	8b'>\J	.	8D\J	.	8ddJ	8g\	.	8b/J	8g\	.	8gg\	.	8bb'>\J	.
!!LO:PB:g=original
=56	=56	=56	=56	=56	=56	=56	=56	=56	=56	=56	=56	=56	=56	=56	=56	=56	=56	=56	=56	=56	=56	=56	=56	=56	=56	=56	=56	=56	=56	=56	=56	=56	=56	=56	=56	=56	=56	=56	=56	=56
2CTT/	.	2C/	2ee 2g\	2.ryy	.	[<2.C/	2.ee 2.g/	2C/	.	.	2G/	.	2e\	no-	.	2g/	.	.	2ee\	.	.	2C/	.	2c\	.	2g/	2ee\	.	2C/	.	2ee/	2cc\	.	2ee 2g/	2.ryy	.	2gg\	.	2eee\	.
4C/	.	4C/	4ee 4g\	.	.	.	.	4C/	.	.	4G/	.	4e\	-bis	.	4g/	.	.	4ee\	.	.	4C/	.	4c\	.	4g/	4ee\	.	4C/	.	4ee/	4cc\	.	4ee 4g/	.	.	4gg\	.	4eee\	.
*	*	*	*	*	*	*	*	*	*	*	*	*	*	*	*	*	*	*	*	*	*	*	*	*	*	*	*	*	*	*	*v	*v	*	*	*	*	*	*	*	*
*	*	*	*v	*v	*	*	*	*	*	*	*	*	*	*	*	*	*	*	*	*	*	*	*	*	*	*	*	*	*	*	*	*	*	*	*	*	*	*	*
=57	=57	=57	=57	=57	=57	=57	=57	=57	=57	=57	=57	=57	=57	=57	=57	=57	=57	=57	=57	=57	=57	=57	=57	=57	=57	=57	=57	=57	=57	=57	=57	=57	=57	=57	=57	=57	=57	=57
*	*	*	*	*	*	*^	*	*	*	*	*	*	*	*	*	*	*	*	*	*	*	*	*	*	*	*	*	*	*	*	*	*	*	*	*	*	*	*
!	!	!	!	!	!	!	!	!	!	!	!	!	!LO:TX:a:t=P:problem=oznaczenie dynamiczne na pięciolinii	!	!LO:HP:a	!	!LO:HP:a	!LO:DY:a	!	!LO:HP:a	!LO:DY:a	!	!	!LO:HP:b	!	!	!LO:HP:b	!	!	!	!	!	!	!	!	!	!LO:HP:a	!	!
4.C/	.	4.C/	4.ee 4.g\	.	2.C/]	2.ee/	4.g\	2.C/	.	.	4.G/	.	2.e\	pa-	<	(<4.f#/	.	<	2.ee\	.	<	2.C/	.	2.c\	<	(<4.f#/	2.ee\	<	2.C/	.	4.ee 4.cc\	.	(>2.ee/	4.g\	.	(<4.gg\	<	2.eee\	.
8r	.	8r	8r	.	.	.	8g#X\L	.	.	.	8G#X/L	.	.	.	.	8g#X/L	.	.	.	.	.	.	.	.	.	8g#X/L	.	.	.	.	8r	.	.	8g#X\L	.	8gg#X\L	.	.	.
4r	.	4r	4r	.	.	.	8a\	.	.	.	8A/	.	.	.	.	8a/	.	.	.	.	.	.	.	.	.	8a/	.	.	.	.	4r	.	.	8a\	.	8aa\	.	.	.
!	!	!	!	!	!	!	!	!	!	!	!	!	!	!	!	!	!	!	!	!	!	!	!	!	!	!	!	!	!	!	!	!	!	!	!	!LO:TX:a:t=P:problem=# above	!	!	!
.	.	.	.	.	.	.	8a#X\J	.	.	.	8A#X/J	.	.	.	[	8a#X/J)	.	[[	.	.	[[	.	.	.	[	8a#X/J)	.	[	.	.	.	.	.	8a#X\J	.	8aa#X\J)	[	.	.
=58	=58	=58	=58	=58	=58	=58	=58	=58	=58	=58	=58	=58	=58	=58	=58	=58	=58	=58	=58	=58	=58	=58	=58	=58	=58	=58	=58	=58	=58	=58	=58	=58	=58	=58	=58	=58	=58	=58	=58
!	!	!	!	!	!	!	!	!	!	!LO:DY:a:rj	!	!	!	!	!LO:DY:a:rj	!	!	!	!	!	!LO:DY:a:rj	!	!	!	!LO:DY:b:rj	!	!	!LO:DY:b:rj	!	!	!	!	!	!	!	!	!LO:DY:a:rj	!	!
2.r	.	2.r	2.r	.	2.BB/	2.dd#X/	2.b\	2BB/	.	f	2B\	.	2d#X\	-cem	f	2b/	.	.	2dd#X\	.	f	2BB/	.	2B/	f	2b\	2dd#X\	f	2BB/	.	2.r	.	2dd#X/)	2b\	.	2bb\	f	2ddd#X\	.
.	.	.	.	.	.	.	.	4BB/	.	.	4B\	.	4d#\	da	.	4b/	.	.	4dd#\	.	.	4BB/	.	4B/	.	4b\	4dd#\	.	4BB/	.	.	.	4dd#/	4b\	.	4bb\	.	4ddd#\	.
*	*	*	*	*	*	*v	*v	*	*	*	*	*	*	*	*	*	*	*	*	*	*	*	*	*	*	*	*	*	*	*	*	*	*v	*v	*	*	*	*	*
=59	=59	=59	=59	=59	=59	=59	=59	=59	=59	=59	=59	=59	=59	=59	=59	=59	=59	=59	=59	=59	=59	=59	=59	=59	=59	=59	=59	=59	=59	=59	=59	=59	=59	=59	=59	=59	=59
2GGT/	.	2E\	2.ee 2.g\	.	2E\	2.ee 2.g/	(>2E\	.	.	2.G/	.	2.e\	pa-	.	2.g/	.	.	2.ee\	.	.	8E\L	.	8e\L	.	8g/L	8ee\L	.	2E\	.	2.ee 2.g/	.	2.ee 2.g/	.	2.gg\	.	2.eee\	.
.	.	.	.	.	.	.	.	.	.	.	.	.	.	.	.	.	.	.	.	.	8E\	.	8e\	.	8g/	8ee\	.	.	.	.	.	.	.	.	.	.	.
.	.	.	.	.	.	.	.	.	.	.	.	.	.	.	.	.	.	.	.	.	8E\	.	8e\	.	8g/	8ee\	.	.	.	.	.	.	.	.	.	.	.
.	.	.	.	.	.	.	.	.	.	.	.	.	.	.	.	.	.	.	.	.	8E\J	.	8e\J	.	8g/	8ee\	.	.	.	.	.	.	.	.	.	.	.
4GG/	.	4G\	.	.	4G\	.	4G\)	.	.	.	.	.	.	.	.	.	.	.	.	.	8G\L	.	8g\L	.	8g/	8ee\	.	4G\	.	.	.	.	.	.	.	.	.
.	.	.	.	.	.	.	.	.	.	.	.	.	.	.	.	.	.	.	.	.	8G\J	.	8g\J	.	8g/J	8ee\J	.	.	.	.	.	.	.	.	.	.	.
=60	=60	=60	=60	=60	=60	=60	=60	=60	=60	=60	=60	=60	=60	=60	=60	=60	=60	=60	=60	=60	=60	=60	=60	=60	=60	=60	=60	=60	=60	=60	=60	=60	=60	=60	=60	=60	=60
2.r	.	2B\	2.r	.	2B\	2.dd#X 2.f#/	2B\	.	.	2F#/	.	2d#X\	-cem	.	2f#/	.	.	2dd#X\	.	.	2B\	.	2b\	.	2f#/	2dd#X\	.	2B\	.	2.r	.	2dd#X 2f#/	.	2ff#\	.	2ddd#X\	.
.	.	4BB/	.	.	4BB/	.	4BB/	.	.	4F#/	.	4d#\	da	.	4f#/	.	.	4dd#\	.	.	4BB/	.	4B/	.	4f#/	4dd#\	.	4BB/	.	.	.	4dd# 4f#/	.	4ff#\	.	4ddd#\	.
=61	=61	=61	=61	=61	=61	=61	=61	=61	=61	=61	=61	=61	=61	=61	=61	=61	=61	=61	=61	=61	=61	=61	=61	=61	=61	=61	=61	=61	=61	=61	=61	=61	=61	=61	=61	=61	=61
!	!	!	!	!	!	!	!	!	!	!	!	!	!	!	!	!	!	!	!	!	!LO:TX:t=P:problem=mixed beam	!	!LO:TX:t=P:problem=mixed beam	!	!	!	!	!LO:TX:a:t=P:problem=brak zakończenia łuku	!	!	!	!LO:TX:a:t=P:problem=brak zakończenia łuku	!	!	!	!	!
*tremolo	*	*	*	*	*	*	*	*	*	*	*	*	*	*	*	*	*	*	*	*	*	*	*	*	*	*	*	*	*	*	*	*	*	*	*	*	*
!	!	!	!	!	!	!	!LO:TX:a:t=P:problem=niejednoznaczne zakończenie łuku	!	!	!LO:TX:a:t=P:problem=niejednoznaczne zakończenie łuku	!	!LO:TX:a:t=P:problem=niejednoznaczne zakończenie łuku	!	!	!LO:TX:a:t=P:problem=niejednoznaczne zakończenie łuku	!	!	!	!	!	!	!	!	!	!	!	!	!	!	!	!	!	!	!	!	!	!
32GG/LLL	.	4.E\	4.ee 4.g/	.	4.E\	4.ee 4.g/	(<4.E\	.	.	(<4.G/	.	(>4.e\	pa-	.	(>4.g/	.	.	4.ee\	.	.	8E'>\L	.	8e'>\L	.	8g'</L	8ee'>\L	.	(<4.E\	.	4.ee 4.g/	.	(>4.ee 4.g/	.	(>4.gg\	.	(>4.eee\	.
32GG/	.	.	.	.	.	.	.	.	.	.	.	.	.	.	.	.	.	.	.	.	.	.	.	.	.	.	.	.	.	.	.	.	.	.	.	.	.
32GG/	.	.	.	.	.	.	.	.	.	.	.	.	.	.	.	.	.	.	.	.	.	.	.	.	.	.	.	.	.	.	.	.	.	.	.	.	.
32GG/	.	.	.	.	.	.	.	.	.	.	.	.	.	.	.	.	.	.	.	.	.	.	.	.	.	.	.	.	.	.	.	.	.	.	.	.	.
32GG/	.	.	.	.	.	.	.	.	.	.	.	.	.	.	.	.	.	.	.	.	8E'>\	.	8e'>\	.	8g'</	8ee'>\	.	.	.	.	.	.	.	.	.	.	.
32GG/	.	.	.	.	.	.	.	.	.	.	.	.	.	.	.	.	.	.	.	.	.	.	.	.	.	.	.	.	.	.	.	.	.	.	.	.	.
32GG/	.	.	.	.	.	.	.	.	.	.	.	.	.	.	.	.	.	.	.	.	.	.	.	.	.	.	.	.	.	.	.	.	.	.	.	.	.
32GG/JJJ	.	.	.	.	.	.	.	.	.	.	.	.	.	.	.	.	.	.	.	.	.	.	.	.	.	.	.	.	.	.	.	.	.	.	.	.	.
*Xtremolo	*	*	*	*	*	*	*	*	*	*	*	*	*	*	*	*	*	*	*	*	*	*	*	*	*	*	*	*	*	*	*	*	*	*	*	*	*
8GG/	.	.	.	.	.	.	.	.	.	.	.	.	.	.	.	.	.	.	.	.	8E'>\	.	8e'>\	.	8g'</	8ee'>\	.	.	.	.	.	.	.	.	.	.	.
!	!	!	!	!	!	!	!	!	!	!	!	!	!	!	!	!	!	!LO:TX:a:t=P:problem=niejednoznaczne zakończenie łuku	!	!	!LO:TX:t=P:problem=brak zakończenia łuku	!	!LO:TX:t=P:problem=brak zakończenia łuku	!	!	!	!	!	!	!	!	!	!	!	!	!	!
8r	.	8r	8r	.	8GG/L	8ggL 8b\	8GG/L	.	.	8B/L	.	8g\L	.	.	8b/L	.	.	(>8gg\L	.	.	(<8GG/	.	(<8G/	.	(<8b/	(>8gg\	.	8GG/L	.	8r	.	8ggL 8b\	.	8bb\L	.	8ggg\L	.
4r	.	4r	4r	.	8AA/	8ff# 8a\	8AA/	.	.	8A/	.	8f#\	.	.	8a/	.	.	8ff#\	.	.	8AA/	.	8A/	.	8a/	8ff#\	.	8AA/	.	4r	.	8ff# 8a\	.	8aa\	.	8fff#\	.
.	.	.	.	.	8AA#X/J	8eeJ 8g\	8AA#X/J	.	.	8G/J	.	8e\J	.	.	8g/J	.	.	8ee\J	.	.	8AA#X/J	.	8A#X/J	.	8g/J)	8ee\J)	.	8AA#X/J	.	.	.	8eeJ 8g\	.	8gg\J)	.	8eee\J	.
!!LO:PB:g=original
=62	=62	=62	=62	=62	=62	=62	=62	=62	=62	=62	=62	=62	=62	=62	=62	=62	=62	=62	=62	=62	=62	=62	=62	=62	=62	=62	=62	=62	=62	=62	=62	=62	=62	=62	=62	=62	=62
*	*	*	*	*	*	*^	*	*	*	*	*	*	*	*	*	*	*	*	*	*	*	*	*	*	*	*	*	*	*	*	*	*	*	*	*	*	*
!	!	!	!LO:TX:b:t=3.	!	!	!	!	!	!	!	!	!	!	!	!	!	!	!	!	!	!	!	!	!	!	!	!	!	!	!	!	!	!	!	!	!	!	!
!LO:TX:t=P:problem=jedna pauza wielotaktowa (2 ukośne kreski)	!	!LO:TX:t=P:problem=jedna pauza wielotaktowa (2 ukośne kreski)	!LO:N:vis=0	!	!	!	!	!	!	!	!	!	!	!	!	!	!	!	!	!	!	!	!	!	!	!	!	!	!	!	!	!	!	!	!	!	!	!
2.r	.	2.r	1.r	.	2BB/	2dd#X 2f#/	2ryy	2BB/)	-cem	.	2F#/)	.	2d#X\)	-cem	.	2f#/)	.	.	2dd#X\)	.	.	2BB/)	.	2B/)	.	2f#/	2dd#X\	.	2BB/)	.	2.r	.	2dd#X 2f#/)	.	2ff#\	.	2ddd#X\)	.
.	.	.	.	.	4AA/	8ddn/L	4f#\	8AAn/	do-	.	8F#/	.	8dn\	do-	.	8f#/	.	.	8ddn\	.	.	4AA/	.	4A/	.	4f#/	(>8ddn\L	.	4r	.	.	.	4r	.	4r	.	4r	.
.	.	.	.	.	.	8cc/J	.	8AA/	-na	.	8F#/	.	8c\	-na	.	8f#/	.	.	8cc\	.	.	.	.	.	.	.	8cc\J)	.	.	.	.	.	.	.	.	.	.	.
=63	=63	=63	=63	=63	=63	=63	=63	=63	=63	=63	=63	=63	=63	=63	=63	=63	=63	=63	=63	=63	=63	=63	=63	=63	=63	=63	=63	=63	=63	=63	=63	=63	=63	=63	=63	=63	=63	=63
2.r	.	2.r	.	.	4GG/	2b/	2.g\	(>4GG/	no-	.	2G/	.	2B\	no-	.	2g/	.	.	2b\	.	.	4GG/	.	4G/	.	2g/	2b\	.	2.r	.	2.r	.	2.r	.	2.r	.	2.r	.
.	.	.	.	.	8G\L	.	.	8G\L	.	.	.	.	.	.	.	.	.	.	.	.	.	(>8G\L	.	(>8g\L	.	.	.	.	.	.	.	.	.	.	.	.	.	.
.	.	.	.	.	8F#\	.	.	8F#\J)	.	.	.	.	.	.	.	.	.	.	.	.	.	8F#\	.	8f#\	.	.	.	.	.	.	.	.	.	.	.	.	.	.
.	.	.	.	.	8E\	8dd/L	.	(>8E\L	-bis	.	4G/	.	(>8d\L	-bis	.	4g/	.	.	(>8dd\L	.	.	8E\	.	8e\	.	4g/	(>8dd\L	.	.	.	.	.	.	.	.	.	.	.
.	.	.	.	.	8E-X\J	8cc/J	.	8E-X\J)	.	.	.	.	8c\J)	.	.	.	.	.	8cc\J)	.	.	8E-X\J)	.	8e-X\J)	.	.	8cc\J)	.	.	.	.	.	.	.	.	.	.	.
*	*	*	*	*	*	*v	*v	*	*	*	*	*	*	*	*	*	*	*	*	*	*	*	*	*	*	*	*	*	*	*	*	*	*	*	*	*	*	*
=64	=64	=64	=64	=64	=64	=64	=64	=64	=64	=64	=64	=64	=64	=64	=64	=64	=64	=64	=64	=64	=64	=64	=64	=64	=64	=64	=64	=64	=64	=64	=64	=64	=64	=64	=64	=64	=64
!	!	!	!LO:N:vis=1	!	!	!	!	!	!	!	!	!	!	!	!	!	!	!	!	!	!	!	!	!	!	!	!	!	!	!	!	!	!	!	!	!	!
2.r	.	2.r	2.r	.	2D\	2b 2g/	(<2D/	pa-	.	(>2G/	.	(>2B\	pa-	.	2g/	.	.	2b/	.	.	8D\L	.	8d\L	.	8g/L	8b/L	.	2.r	.	2.r	.	2.r	.	2.r	.	2.r	.
.	.	.	.	.	.	.	.	.	.	.	.	.	.	.	.	.	.	.	.	.	8D\	.	8d\	.	8g/	8b/	.	.	.	.	.	.	.	.	.	.	.
.	.	.	.	.	.	.	.	.	.	.	.	.	.	.	.	.	.	.	.	.	8D\	.	8d\	.	8g/	8b/	.	.	.	.	.	.	.	.	.	.	.
.	.	.	.	.	.	.	.	.	.	.	.	.	.	.	.	.	.	.	.	.	8D\J	.	8d\J	.	8g/J	8b/J	.	.	.	.	.	.	.	.	.	.	.
.	.	.	.	.	4C/	4a 4f#/	4C/)	.	.	4F#/)	.	4A\)	.	.	4f#/	.	.	4a/	.	.	8C/L	.	8d 8c\L	.	8f#/L	8a/L	.	.	.	.	.	.	.	.	.	.	.
.	.	.	.	.	.	.	.	.	.	.	.	.	.	.	.	.	.	.	.	.	8C/J	.	8d 8c\J	.	8f#/J	8a/J	.	.	.	.	.	.	.	.	.	.	.
=65	=65	=65	=65	=65	=65	=65	=65	=65	=65	=65	=65	=65	=65	=65	=65	=65	=65	=65	=65	=65	=65	=65	=65	=65	=65	=65	=65	=65	=65	=65	=65	=65	=65	=65	=65	=65	=65
4r	.	4r	4r	.	2BB/	2dd 2g/	2BB/	-cem	.	2G/	.	2d\	-cem	.	2g/	.	.	2dd\	.	.	8BB/L	.	8d 8B/L	.	8g/L	8dd\L	.	4r	.	4r	.	4r	.	4r	.	4r	.
.	.	.	.	.	.	.	.	.	.	.	.	.	.	.	.	.	.	.	.	.	8BB/	.	8d 8B/	.	8g/	8dd\	.	.	.	.	.	.	.	.	.	.	.
4r	.	4r	4r	.	.	.	.	.	.	.	.	.	.	.	.	.	.	.	.	.	8BB/	.	8d 8B/	.	8g/	8dd\	.	4r	.	4r	.	4r	.	4r	.	4r	.
.	.	.	.	.	.	.	.	.	.	.	.	.	.	.	.	.	.	.	.	.	8BB/J	.	8d 8B/J	.	8g/J	8dd\J	.	.	.	.	.	.	.	.	.	.	.
!	!	!	!	!	!	!	!	!	!	!	!	!	!	!	!	!	!	!	!	!	!	!	!	!	!	!LO:TX:a:t=P:problem=w źródle łuk od 8dd# do 8ee	!	!	!	!	!	!	!	!	!	!	!
4GG/	.	4BB/	4gg 4g\	.	4BB/	4dd#X 4g/	(<4BB/	.	.	[<4G/	.	(>4d#X\	do-	.	4g/	.	.	4dd#X\	.	.	8BB/L	.	8B/L	.	8g/L	(>8dd#X\L	.	4BB/	.	4gg 4g\	.	4dd#X 4g/	.	4gg\	.	(>4ddd#X\	.
.	.	.	.	.	.	.	.	.	.	.	.	.	.	.	.	.	.	.	.	.	8BB/J	.	8B/J	.	8g/J	8dd#X\J)	.	.	.	.	.	.	.	.	.	.	.
=66	=66	=66	=66	=66	=66	=66	=66	=66	=66	=66	=66	=66	=66	=66	=66	=66	=66	=66	=66	=66	=66	=66	=66	=66	=66	=66	=66	=66	=66	=66	=66	=66	=66	=66	=66	=66	=66
2GGTT/	.	2C/	2gg 2g\	.	2C/	2ee 2g\	2C/)	.	.	2G/]	.	2e\)	.	.	2g/	.	.	2ee\	.	.	8C/L	.	8c/L	.	8g/L	8ee\L	.	2C/	.	2gg 2g\	.	2ee 2g/	.	2gg\	.	2eee\)	.
.	.	.	.	.	.	.	.	.	.	.	.	.	.	.	.	.	.	.	.	.	8C/	.	8c/	.	8g/	8ee\	.	.	.	.	.	.	.	.	.	.	.
.	.	.	.	.	.	.	.	.	.	.	.	.	.	.	.	.	.	.	.	.	8C/	.	8c/	.	8g/	8ee\	.	.	.	.	.	.	.	.	.	.	.
.	.	.	.	.	.	.	.	.	.	.	.	.	.	.	.	.	.	.	.	.	8C/J	.	8c/J	.	8g/J	8ee\J)	.	.	.	.	.	.	.	.	.	.	.
4GG/	.	4C#X/	4ee 4g\	.	4C#X/	4gg 4a#X\	4C#X/	.	.	4A#X/	.	4g\	-na	.	4a#X/	.	.	4gg\	.	.	8C#X/L	.	8c#X/L	.	8a#X/L	8gg\L	.	4C#X/	.	4gg 4g\	.	4ee 4a#X/	.	4aa#X\	.	4ggg\	.
.	.	.	.	.	.	.	.	.	.	.	.	.	.	.	.	.	.	.	.	.	8C#X/J	.	8c#X/J	.	8a#X/J	8gg\J	.	.	.	.	.	.	.	.	.	.	.
=67	=67	=67	=67	=67	=67	=67	=67	=67	=67	=67	=67	=67	=67	=67	=67	=67	=67	=67	=67	=67	=67	=67	=67	=67	=67	=67	=67	=67	=67	=67	=67	=67	=67	=67	=67	=67	=67
*	*	*	*	*	*	*	*	*	*	*	*	*	*	*	*	*	*	*	*	*	*	*	*	*	*	*	*	*	*	*^	*	*	*	*	*	*	*
!	!	!	!	!	!	!	!	!	!	!	!	!	!	!	!	!	!	!	!	!	!	!	!	!	!	!	!	!	!	!	!	!	!	!	!	!	!LO:TX:a:t=P:problem=niejednoznaczny zapis łuku	!
2.r	.	8D\L	8dd\L	.	2.D\	4.dd 4.b\	2D\	.	.	(>4.B\	.	(>4.d\	no-	.	4.b/	.	.	(>4.dd\	.	.	2D\	.	2d\	.	(<4.b/	(>4.dd\	.	2D\	.	2dd/	2dd\	.	(>4.dd 4.b/	.	(>4.bb\	.	(>4.ddd\	.
.	.	16D\L	16dd\L	.	.	.	.	.	.	.	.	.	.	.	.	.	.	.	.	.	.	.	.	.	.	.	.	.	.	.	.	.	.	.	.	.	.	.
.	.	16D\JJ	16dd\JJ	.	.	.	.	.	.	.	.	.	.	.	.	.	.	.	.	.	.	.	.	.	.	.	.	.	.	.	.	.	.	.	.	.	.	.
.	.	4D\	4dd\	.	.	.	.	.	.	.	.	.	.	.	.	.	.	.	.	.	.	.	.	.	.	.	.	.	.	.	.	.	.	.	.	.	.	.
.	.	.	.	.	.	8cc 8an/	.	.	.	8An\)	.	8c\)	.	.	8a/	.	.	8cc\	.	.	.	.	.	.	8an/	8ccn\	.	.	.	.	.	.	8ccn 8an/	.	8aan\	.	8ccc\)	.
!	!	!	!	!	!	!LO:TX:a:t=P:problem=brak początku ligatury	!	!	!	!	!	!	!	!	!	!	!	!	!	!	!	!	!	!	!	!	!	!	!	!	!	!	!	!	!	!	!	!
.	.	4D\	4dd\	.	.	4b [<4g/	4D\	.	.	4G/	.	4B\	-bis	.	4g/	.	.	4b\)	.	.	4D\	.	4d\	.	4g/)	4b\)	.	4D\	.	4dd/	4dd\	.	4b 4g/)	.	4gg\)	.	4bb\	.
!!LO:PB:g=original
=68	=68	=68	=68	=68	=68	=68	=68	=68	=68	=68	=68	=68	=68	=68	=68	=68	=68	=68	=68	=68	=68	=68	=68	=68	=68	=68	=68	=68	=68	=68	=68	=68	=68	=68	=68	=68	=68	=68
*	*	*	*	*	*	*^	*	*	*	*	*	*	*	*	*	*	*	*	*	*	*	*	*	*	*	*	*	*	*	*	*	*	*^	*	*	*	*	*
!	!	!	!	!	!	!	!	!	!	!	!	!	!	!	!	!	!	!	!	!	!	!LO:TX:a:t=P:problem=w źródle półnuta bez kropki	!	!	!	!	!	!	!	!	!	!	!	!	!	!	!	!	!	!
!	!	!	!	!	!	!	!	!	!	!	!	!	!	!	!	!	!	!	!	!	!	!LO:N:vis=2	!	!	!	!	!	!	!	!	!	!	!	!	!	!	!	!	!	!
2.r	.	2D\	2dd\	.	2.D 2.DD/	2a/	4g\]	2.D\	.	.	(<4G/	.	(>2A\	pa-	.	(>4g/	.	.	(>2a/	.	.	8D\L	.	8d\L	.	8g'</L	8a/L	.	2.D\	.	2.dd/	2.dd\	.	2a/	4g\	.	(>4gg\	.	(>2aa\	.
.	.	.	.	.	.	.	.	.	.	.	.	.	.	.	.	.	.	.	.	.	.	8D\	.	8d\	.	8g'</	8a/	.	.	.	.	.	.	.	.	.	.	.	.	.
.	.	.	.	.	.	.	8f#\L	.	.	.	8F#/L	.	.	.	.	8f#/L	.	.	.	.	.	8D\	.	8d\	.	(<8f#/	8a/	.	.	.	.	.	.	.	8f#\L	.	8ff#\L	.	.	.
.	.	.	.	.	.	.	8e\J	.	.	.	8E/J)	.	.	.	.	8e/J	.	.	.	.	.	8D\	.	8d\	.	8e/J)	8a/J	.	.	.	.	.	.	.	8e\J	.	8ee\J	.	.	.
*	*	*	*	*	*	*	*	*	*	*	*	*	*	*	*	*	*	*	*	*	*	*	*	*	*	*Xtremolo	*	*	*	*	*	*	*	*	*	*	*	*	*	*
.	.	4D\	4dd\	.	.	4dd/	4f#\	.	.	.	4F#/	.	4d\)	.	.	4f#/)	.	.	4dd\)	.	.	8D\	.	8d\	.	8f#/L	8dd\L	.	.	.	.	.	.	4dd/	4f#\	.	4ff#\)	.	4ddd\)	.
.	.	.	.	.	.	.	.	.	.	.	.	.	.	.	.	.	.	.	.	.	.	8D\J	.	8d\J	.	8f#/J	8dd\J	.	.	.	.	.	.	.	.	.	.	.	.	.
=69	=69	=69	=69	=69	=69	=69	=69	=69	=69	=69	=69	=69	=69	=69	=69	=69	=69	=69	=69	=69	=69	=69	=69	=69	=69	=69	=69	=69	=69	=69	=69	=69	=69	=69	=69	=69	=69	=69	=69	=69
2.r	.	2G\	2ee 2g/	.	2E 2EE/	2b/	2g\	2E\	.	.	2G/	.	2B\	-cem	.	2g/	.	.	2b\	.	.	2E\	.	2e\	.	2g/	2b\	.	2E\	.	2dd/	2g\	.	2b/	2g\	.	2gg\	.	2bb\	.
.	.	4r	4r	.	4BB/	4dd#X/	4a\	(<4BB/	.	.	(<4A/	.	(>4d#X\	do-	.	4a/	.	.	(>4dd#X\	.	.	4BB/	.	4B/	.	4a 4f#/	4dd#X\	.	4BB/	.	4r	4ryy	.	4dd#X/	4a\	.	4aa\	.	(>4ddd#X\	.
*	*	*	*	*	*	*v	*v	*	*	*	*	*	*	*	*	*	*	*	*	*	*	*	*	*	*	*	*	*	*	*	*	*	*	*v	*v	*	*	*	*	*
=70	=70	=70	=70	=70	=70	=70	=70	=70	=70	=70	=70	=70	=70	=70	=70	=70	=70	=70	=70	=70	=70	=70	=70	=70	=70	=70	=70	=70	=70	=70	=70	=70	=70	=70	=70	=70	=70	=70
*	*	*	*	*	*	*	*	*	*	*	*	*	*	*	*	*	*	*	*	*	*	*	*	*	*tremolo	*	*	*	*	*	*	*	*	*	*	*	*	*
2.r	.	4r	4r	.	2C/	2ee 2g\	2C/)	.	.	2G/)	.	2e\)	.	.	2g/	.	.	2ee\)	.	.	8C/L	.	8c/L	.	8g/L	8ee\L	.	2C/	.	4r	2ryy	.	2ee 2g/	.	2gg\	.	2eee\)	.
.	.	.	.	.	.	.	.	.	.	.	.	.	.	.	.	.	.	.	.	.	8C/	.	8c/	.	8g/	8ee\	.	.	.	.	.	.	.	.	.	.	.	.
.	.	4r	4r	.	.	.	.	.	.	.	.	.	.	.	.	.	.	.	.	.	8C/	.	8c/	.	8g/	8ee\	.	.	.	4r	.	.	.	.	.	.	.	.
.	.	.	.	.	.	.	.	.	.	.	.	.	.	.	.	.	.	.	.	.	8C/J	.	8c/J	.	8g/J	8ee\J	.	.	.	.	.	.	.	.	.	.	.	.
.	.	4C#X/	4ee 4g/	.	4C#X/	4gg 4a#X\	4C#X/	.	.	4A#X/	.	4g\	-na	.	4a#X/	.	.	4gg\	.	.	8C#X/L	.	8c#X/L	.	8a#X/L	8gg\L	.	4C#X/	.	4ee/	4cc#X\	.	4gg 4a#X\	.	4aa#X\	.	4ggg\	.
.	.	.	.	.	.	.	.	.	.	.	.	.	.	.	.	.	.	.	.	.	8C#X/J	.	8c#X/J	.	8a#X/J	8gg\J	.	.	.	.	.	.	.	.	.	.	.	.
=71	=71	=71	=71	=71	=71	=71	=71	=71	=71	=71	=71	=71	=71	=71	=71	=71	=71	=71	=71	=71	=71	=71	=71	=71	=71	=71	=71	=71	=71	=71	=71	=71	=71	=71	=71	=71	=71	=71
2.r	.	8D\L	8dd\L	.	[>2.D/	4.dd 4.b\	2D\	.	.	(>4.B\	.	(>4.d\	no-	.	(>4.b/	.	.	(>4.dd\	.	.	2D\	.	2d\	.	4.b/	(>4.dd\	.	2D\	.	2dd/	2dd\	.	4.dd 4.b/	.	(>4.bb\	.	(>4.ddd\	.
.	.	16D\L	16dd\L	.	.	.	.	.	.	.	.	.	.	.	.	.	.	.	.	.	.	.	.	.	.	.	.	.	.	.	.	.	.	.	.	.	.	.
.	.	16D\JJ	16dd\JJ	.	.	.	.	.	.	.	.	.	.	.	.	.	.	.	.	.	.	.	.	.	.	.	.	.	.	.	.	.	.	.	.	.	.	.
.	.	4D\	4dd\	.	.	.	.	.	.	.	.	.	.	.	.	.	.	.	.	.	.	.	.	.	.	.	.	.	.	.	.	.	.	.	.	.	.	.
.	.	.	.	.	.	8cc/ 8an/	.	.	.	8An\)	.	8c\)	.	.	8a/)	.	.	8cc\)	.	.	.	.	.	.	8an/	8cc\	.	.	.	.	.	.	8ccny 8an/	.	8aan\	.	8ccc\	.
.	.	4D\	4dd\	.	.	4b 4g/	4D\	.	.	4G/	.	4B\	-bis	.	4g/	.	.	4b\	.	.	4D\	.	4d\	.	4g/	4b\)	.	4D\	.	4dd/	4dd\	.	4b 4g/	.	4gg\)	.	4bb\)	.
=72	=72	=72	=72	=72	=72	=72	=72	=72	=72	=72	=72	=72	=72	=72	=72	=72	=72	=72	=72	=72	=72	=72	=72	=72	=72	=72	=72	=72	=72	=72	=72	=72	=72	=72	=72	=72	=72	=72
*	*	*	*	*	*	*^	*	*	*	*	*	*	*	*	*	*	*	*	*	*	*	*	*	*	*	*	*	*	*	*	*	*	*^	*	*	*	*	*
!	!	!	!	!	!	!	!	!	!	!	!	!	!LO:TX:a:t=P:problem=brak zakończenia łuku	!	!	!LO:TX:a:t=P:problem=niejednoznaczne zakończenie łuku	!	!	!	!	!	!	!	!	!	!	!	!	!	!	!	!	!	!LO:TX:a:t=P:problem=brak zakończenia łuku	!	!	!LO:TX:a:t=P:problem=brak zakończenia łuku	!	!	!
2.r	.	2D\	2dd\	.	2.D] 2.DD/	2a/	4g\	2.D\	.	.	(<4G/	.	(>2A\	pa-	.	(>4g/	.	.	(>2a/	.	.	8D\L	.	8d\L	.	8g'</L	8a/L	.	2.D\	.	2.dd/	2.dd\	.	(>2a/	4g\	.	(>4gg\	.	(>2aa\	.
.	.	.	.	.	.	.	.	.	.	.	.	.	.	.	.	.	.	.	.	.	.	8D\	.	8d\	.	8g'</	8a/	.	.	.	.	.	.	.	.	.	.	.	.	.
.	.	.	.	.	.	.	8f#\L	.	.	.	8F#/L	.	.	.	.	8f#/L	.	.	.	.	.	8D\	.	8d\	.	(<8f#/	8a/	.	.	.	.	.	.	.	8f#\L	.	8ff#\L	.	.	.
.	.	.	.	.	.	.	8e\J	.	.	.	8E/J	.	.	.	.	8e/J	.	.	.	.	.	8D\	.	8d\	.	8e/J)	8a/J	.	.	.	.	.	.	.	8e\J	.	8ee\J	.	.	.
.	.	4D\	4dd\	.	.	4dd/	4f#\	.	.	.	4F#/)	.	4d\	.	.	4f#/	.	.	4dd\)	.	.	8D\	.	8d\	.	8f#/L	8dd\L	.	.	.	.	.	.	4dd/	4f#\	.	4ff#\	.	4ddd\)	.
.	.	.	.	.	.	.	.	.	.	.	.	.	.	.	.	.	.	.	.	.	.	8D\J	.	8d\J	.	8f#/J	8dd\J	.	.	.	.	.	.	.	.	.	.	.	.	.
*	*	*	*	*	*	*v	*v	*	*	*	*	*	*	*	*	*	*	*	*	*	*	*	*	*	*	*	*	*	*	*	*	*	*	*	*	*	*	*	*	*
!!LO:PB:g=original
=73	=73	=73	=73	=73	=73	=73	=73	=73	=73	=73	=73	=73	=73	=73	=73	=73	=73	=73	=73	=73	=73	=73	=73	=73	=73	=73	=73	=73	=73	=73	=73	=73	=73	=73	=73	=73	=73	=73	=73
*	*	*	*^	*	*	*	*	*	*	*	*	*	*	*	*	*	*	*	*	*	*	*	*	*	*	*	*	*	*	*	*	*	*	*	*	*	*	*	*
2.r	.	4G\	4g/	4g\	.	4G 4GG/	4g/	4G\	.	.	4G/	.	4G/)	-cem	.	4g/)	.	.	4g/	.	.	4G\	.	4g\	.	4g/	4g/	.	4G\	.	4g/	4g\	.	4g/)	4g\	.	4gg\)	.	4gg\	.
.	.	4r	4r	4ryy	.	8r	8r	8r	.	.	8r	.	8r	.	.	8r	.	.	8r	.	.	8r	.	8r	.	8r	8r	.	4r	.	4r	4ryy	.	4r	4ryy	.	4r	.	4r	.
*	*	*	*	*	*	*	*	*	*	*	*	*	*	*	*	*	*	*	*	*	*	*	*	*	*	*Xtremolo	*	*	*	*	*	*	*	*	*	*	*	*	*	*
!	!	!	!	!	!	!	!	!	!	!	!	!	!	!	!	!	!	!	!	!	!	!	!	!LO:TX:a:t=P:problem=niejednoznaczny zapis łuku	!	!	!	!LO:DY:a:rj	!	!	!	!	!	!	!	!	!	!	!	!
.	.	.	.	.	.	8G\L	8g/L	(>8G\L	.	.	(<8G/L	.	(<8G/L	do-	.	8g/L	.	.	(<8g/L	.	.	(>8G\L	.	(>8g\L	.	(<8g/L	(<8g/L	p	.	.	.	.	.	.	.	.	.	.	.	.
.	.	4r	4r	4ryy	.	8F#\	8a/	8F#\J)	.	.	8A/J)	.	8A/J)	.	.	8a/J	.	.	8a/J)	.	.	8F#\	.	8f#\	.	8a/	8a/	.	4r	.	4r	4ryy	.	4r	4ryy	.	4r	.	4r	.
.	.	.	.	.	.	8Fn\J	8b/J	8Fn\	.	.	8G/	.	8B\	-na	.	8g/	.	.	8b/	.	.	8Fn\J	.	8fn\J)	.	8g/J)	8b/J)	.	.	.	.	.	.	.	.	.	.	.	.	.
*	*	*	*	*	*	*	*	*	*	*	*	*	*	*	*	*	*	*	*	*	*	*	*	*	*	*	*	*	*	*	*v	*v	*	*	*	*	*	*	*	*
*	*	*	*v	*v	*	*	*	*	*	*	*	*	*	*	*	*	*	*	*	*	*	*	*	*	*	*	*	*	*	*	*	*	*v	*v	*	*	*	*	*
=74	=74	=74	=74	=74	=74	=74	=74	=74	=74	=74	=74	=74	=74	=74	=74	=74	=74	=74	=74	=74	=74	=74	=74	=74	=74	=74	=74	=74	=74	=74	=74	=74	=74	=74	=74	=74	=74
*	*	*	*	*	*	*^	*	*	*	*	*	*	*	*	*	*	*	*	*	*	*	*	*	*	*	*	*	*	*	*	*	*	*	*	*	*	*
!	!	!	!LO:TX:b:t=3.	!	!	!	!	!	!	!	!	!	!	!	!	!	!	!	!	!	!	!	!	!	!	!	!	!	!	!	!	!	!	!	!	!	!	!
!LO:TX:t=P:problem=jedna pauza wielotaktowa (2 ukośne kreski)	!	!LO:TX:t=P:problem=jedna pauza wielotaktowa (2 ukośne kreski)	!LO:N:vis=0	!	!	!	!	!	!	!	!	!	!	!	!	!	!	!	!	!	!	!	!	!	!	!	!	!	!	!	!	!	!	!	!	!	!	!
2.r	.	2.r	1.r	.	2E\	2cc/	2.g\	2E\	.	.	2G/	.	2c\	no-	.	2g/	.	.	2cc\	.	.	2E\)	.	2e\	.	2g/	2cc\	.	2.r	.	2.r	.	2.r	.	2.r	.	2.r	.
.	.	.	.	.	4C/	4ee/	.	4C/	.	.	4G/	.	4e\	-bis	.	4g/	.	.	4ee\	.	.	4C/	.	4c\	.	4g/	4ee\	.	.	.	.	.	.	.	.	.	.	.
*	*	*	*	*	*	*v	*v	*	*	*	*	*	*	*	*	*	*	*	*	*	*	*	*	*	*	*	*	*	*	*	*	*	*	*	*	*	*	*
=75	=75	=75	=75	=75	=75	=75	=75	=75	=75	=75	=75	=75	=75	=75	=75	=75	=75	=75	=75	=75	=75	=75	=75	=75	=75	=75	=75	=75	=75	=75	=75	=75	=75	=75	=75	=75	=75
2.r	.	2.r	.	.	2.C/	2.ee 2.g\	(<2.C/	.	.	[<2.G/	.	(>2.e\	pa-	.	[<2.g/	.	.	2.ee\	.	.	2.C/	.	2.c\	.	[<2.g/	2.ee\	.	2.r	.	2.r	.	2.r	.	2.r	.	2.r	.
=76	=76	=76	=76	=76	=76	=76	=76	=76	=76	=76	=76	=76	=76	=76	=76	=76	=76	=76	=76	=76	=76	=76	=76	=76	=76	=76	=76	=76	=76	=76	=76	=76	=76	=76	=76	=76	=76
!	!	!	!LO:N:vis=1	!	!	!	!	!	!	!	!	!	!	!	!	!	!	!	!	!	!	!	!	!	!	!	!	!	!	!	!	!	!	!	!	!	!
2.r	.	2.r	2.r	.	2.E\	2.cc 2.g/	2.E\)	.	.	2.G/]	.	2.c\)	.	.	2.g/]	.	.	2.cc\	.	.	2.E\	.	2.e\	.	2.g/]	2.cc\	.	2.r	.	2.r	.	2.r	.	2.r	.	2.r	.
=77	=77	=77	=77	=77	=77	=77	=77	=77	=77	=77	=77	=77	=77	=77	=77	=77	=77	=77	=77	=77	=77	=77	=77	=77	=77	=77	=77	=77	=77	=77	=77	=77	=77	=77	=77	=77	=77
!	!	!	!	!LO:DY:b:rj	!	!	!	!	!	!	!	!	!	!	!	!	!	!	!	!	!	!	!	!	!	!	!	!	!	!	!LO:DY:b:rj	!	!	!	!LO:DY:a:rj	!	!
*tremolo	*	*	*	*	*	*	*	*	*	*	*	*	*	*	*	*	*	*	*	*	*	*	*	*	*tremolo	*	*	*	*	*	*	*	*	*	*	*	*
!	!	!	!	!	!	!	!	!	!	!	!	!	!	!	!	!	!	!	!	!	!	!	!	!LO:DY:b:rj	!	!	!LO:DY:b:rj	!	!	!	!	!	!	!	!	!	!
32GG/LLL	.	2.G\	[>2.dd 2.g/	ff	2.G\	[>2.dd [>2.b [<2.g/	[>2.G\	.	.	[>2.B\	.	[>2.d\	-cem.	.	[>2.b\	.	.	[>2.dd\	.	.	32G\LLL	.	32d 32G/LLL	f	32g/LLL	32gg 32b\LLL	f	[>2.G\	.	[>2.dd [<2.g/	f	[>2.gg [>2.b\	.	[>2.bb\	f	[>2.ddd\	.
32GG/	.	.	.	.	.	.	.	.	.	.	.	.	.	.	.	.	.	.	.	.	32G\	.	32d 32G/	.	32g/	32gg 32b\	.	.	.	.	.	.	.	.	.	.	.
32GG/	.	.	.	.	.	.	.	.	.	.	.	.	.	.	.	.	.	.	.	.	32G\	.	32d 32G/	.	32g/	32gg 32b\	.	.	.	.	.	.	.	.	.	.	.
32GG/	.	.	.	.	.	.	.	.	.	.	.	.	.	.	.	.	.	.	.	.	32G\	.	32d 32G/	.	32g/	32gg 32b\	.	.	.	.	.	.	.	.	.	.	.
32GG/	.	.	.	.	.	.	.	.	.	.	.	.	.	.	.	.	.	.	.	.	32G\	.	32d 32G/	.	32g/	32gg 32b\	.	.	.	.	.	.	.	.	.	.	.
32GG/	.	.	.	.	.	.	.	.	.	.	.	.	.	.	.	.	.	.	.	.	32G\	.	32d 32G/	.	32g/	32gg 32b\	.	.	.	.	.	.	.	.	.	.	.
32GG/	.	.	.	.	.	.	.	.	.	.	.	.	.	.	.	.	.	.	.	.	32G\	.	32d 32G/	.	32g/	32gg 32b\	.	.	.	.	.	.	.	.	.	.	.
32GG/	.	.	.	.	.	.	.	.	.	.	.	.	.	.	.	.	.	.	.	.	32G\	.	32d 32G/	.	32g/	32gg 32b\	.	.	.	.	.	.	.	.	.	.	.
32GG/	.	.	.	.	.	.	.	.	.	.	.	.	.	.	.	.	.	.	.	.	32G\	.	32d 32G/	.	32g/	32gg 32b\	.	.	.	.	.	.	.	.	.	.	.
32GG/	.	.	.	.	.	.	.	.	.	.	.	.	.	.	.	.	.	.	.	.	32G\	.	32d 32G/	.	32g/	32gg 32b\	.	.	.	.	.	.	.	.	.	.	.
32GG/	.	.	.	.	.	.	.	.	.	.	.	.	.	.	.	.	.	.	.	.	32G\	.	32d 32G/	.	32g/	32gg 32b\	.	.	.	.	.	.	.	.	.	.	.
32GG/	.	.	.	.	.	.	.	.	.	.	.	.	.	.	.	.	.	.	.	.	32G\	.	32d 32G/	.	32g/	32gg 32b\	.	.	.	.	.	.	.	.	.	.	.
32GG/	.	.	.	.	.	.	.	.	.	.	.	.	.	.	.	.	.	.	.	.	32G\	.	32d 32G/	.	32g/	32gg 32b\	.	.	.	.	.	.	.	.	.	.	.
32GG/	.	.	.	.	.	.	.	.	.	.	.	.	.	.	.	.	.	.	.	.	32G\	.	32d 32G/	.	32g/	32gg 32b\	.	.	.	.	.	.	.	.	.	.	.
32GG/	.	.	.	.	.	.	.	.	.	.	.	.	.	.	.	.	.	.	.	.	32G\	.	32d 32G/	.	32g/	32gg 32b\	.	.	.	.	.	.	.	.	.	.	.
32GG/	.	.	.	.	.	.	.	.	.	.	.	.	.	.	.	.	.	.	.	.	32G\	.	32d 32G/	.	32g/	32gg 32b\	.	.	.	.	.	.	.	.	.	.	.
32GG/	.	.	.	.	.	.	.	.	.	.	.	.	.	.	.	.	.	.	.	.	32G\	.	32d 32G/	.	32g/	32gg 32b\	.	.	.	.	.	.	.	.	.	.	.
32GG/	.	.	.	.	.	.	.	.	.	.	.	.	.	.	.	.	.	.	.	.	32G\	.	32d 32G/	.	32g/	32gg 32b\	.	.	.	.	.	.	.	.	.	.	.
32GG/	.	.	.	.	.	.	.	.	.	.	.	.	.	.	.	.	.	.	.	.	32G\	.	32d 32G/	.	32g/	32gg 32b\	.	.	.	.	.	.	.	.	.	.	.
32GG/	.	.	.	.	.	.	.	.	.	.	.	.	.	.	.	.	.	.	.	.	32G\	.	32d 32G/	.	32g/	32gg 32b\	.	.	.	.	.	.	.	.	.	.	.
32GG/	.	.	.	.	.	.	.	.	.	.	.	.	.	.	.	.	.	.	.	.	32G\	.	32d 32G/	.	32g/	32gg 32b\	.	.	.	.	.	.	.	.	.	.	.
32GG/	.	.	.	.	.	.	.	.	.	.	.	.	.	.	.	.	.	.	.	.	32G\	.	32d 32G/	.	32g/	32gg 32b\	.	.	.	.	.	.	.	.	.	.	.
32GG/	.	.	.	.	.	.	.	.	.	.	.	.	.	.	.	.	.	.	.	.	32G\	.	32d 32G/	.	32g/	32gg 32b\	.	.	.	.	.	.	.	.	.	.	.
32GG/JJJ	.	.	.	.	.	.	.	.	.	.	.	.	.	.	.	.	.	.	.	.	32G\JJJ	.	32d 32G/JJJ	.	32g/JJJ	32gg 32b\JJJ	.	.	.	.	.	.	.	.	.	.	.
*	*	*	*	*	*	*	*	*	*	*	*	*	*	*	*	*	*	*	*	*	*	*	*	*	*	*Xtremolo	*	*	*	*	*	*	*	*	*	*	*
*	*	*	*	*	*	*	*	*	*	*	*	*	*	*	*	*	*	*	*	*	*	*	*	*	*Xtremolo	*	*	*	*	*	*	*	*	*	*	*	*
*	*	*	*	*	*	*	*	*	*	*	*	*	*	*	*	*	*	*	*	*	*	*	*Xtremolo	*	*	*	*	*	*	*	*	*	*	*	*	*	*
*	*	*	*	*	*	*	*	*	*	*	*	*	*	*	*	*	*	*	*	*	*Xtremolo	*	*	*	*	*	*	*	*	*	*	*	*	*	*	*	*
*Xtremolo	*	*	*	*	*	*	*	*	*	*	*	*	*	*	*	*	*	*	*	*	*	*	*	*	*	*	*	*	*	*	*	*	*	*	*	*	*
=78	=78	=78	=78	=78	=78	=78	=78	=78	=78	=78	=78	=78	=78	=78	=78	=78	=78	=78	=78	=78	=78	=78	=78	=78	=78	=78	=78	=78	=78	=78	=78	=78	=78	=78	=78	=78	=78
2GG/	.	2G\	2dd] 2g/	.	2G 2GG/	2dd] 2b] 2g/]	2G\]	.	.	2B\]	.	2d\]	.	.	2b\]	.	.	2dd\]	.	.	2G\	.	2d 2G/	.	2g/	2gg 2b\	.	2G\]	.	2dd] 2g/]	.	2gg] 2b\]	.	2bb\]	.	2ddd\]	.
!	!	!	!	!	!	!	!	!	!	!	!	!	!	!	!	!	!	!	!	!	!	!	!	!	!	!	!LO:DY:b:rj	!	!	!	!	!	!	!	!	!	!
4r	.	4r	4r	.	4G\	4b 4fn 4d/	4r	.	.	4r	.	4r	.	.	4r	.	.	4r	.	.	4G\	.	4d\	.	4fn/	4b\	p	4r	.	4r	.	4r	.	4r	.	4r	.
!!LO:PB:g=original
=79	=79	=79	=79	=79	=79	=79	=79	=79	=79	=79	=79	=79	=79	=79	=79	=79	=79	=79	=79	=79	=79	=79	=79	=79	=79	=79	=79	=79	=79	=79	=79	=79	=79	=79	=79	=79	=79
*	*	*	*	*	*	*^	*	*	*	*	*	*	*	*	*	*	*	*	*	*	*	*	*	*	*	*	*	*	*	*	*	*	*	*	*	*	*
!LO:TX:t=P:problem=jedna pauza wielotaktowa (2 ukośne kreski)	!	!LO:TX:t=P:problem=jedna pauza wielotaktowa (2 ukośne kreski)	!LO:TX:t=P:problem=jedna pauza wielotaktowa (2 ukośne kreski)	!	!	!	!	!	!	!	!	!	!	!	!	!	!	!	!	!	!	!	!	!	!	!	!	!	!	!	!	!	!	!	!	!	!	!
2.r	.	2.r	2.r	.	[>2.G\	4cc/	8e\L	2.r	.	.	2.r	.	2.r	.	.	2.r	.	.	2.r	.	.	[>2.G\	.	[>2.g\	.	(<8e/L	(>4cc\	.	2.ryy	.	2.ryy	.	2.ryy	.	2.ryy	.	2.ryy	.
.	.	.	.	.	.	.	8e-X\J	.	.	.	.	.	.	.	.	.	.	.	.	.	.	.	.	.	.	8e-X/J	.	.	.	.	.	.	.	.	.	.	.	.
.	.	.	.	.	.	4b 4d/	4ryy	.	.	.	.	.	.	.	.	.	.	.	.	.	.	.	.	.	.	4d/	4b\	.	.	.	.	.	.	.	.	.	.	.
.	.	.	.	.	.	4a#X 4c#X/	4ryy	.	.	.	.	.	.	.	.	.	.	.	.	.	.	.	.	.	.	4c#X/)	4a#X\)	.	.	.	.	.	.	.	.	.	.	.
*	*	*	*	*	*	*v	*v	*	*	*	*	*	*	*	*	*	*	*	*	*	*	*	*	*	*	*	*	*	*	*	*	*	*	*	*	*	*	*
=80	=80	=80	=80	=80	=80	=80	=80	=80	=80	=80	=80	=80	=80	=80	=80	=80	=80	=80	=80	=80	=80	=80	=80	=80	=80	=80	=80	=80	=80	=80	=80	=80	=80	=80	=80	=80	=80
2.r	.	2.r	2.r	.	2.G\]	2b 2d/	2.ryy	.	.	2.ryy	.	2.r	.	.	2.ryy	.	.	2.ryy	.	.	2.G\]	.	2.g\]	.	(<2d/	(>2b\	.	2.ryy	.	2.ryy	.	2.ryy	.	2.ryy	.	2.ryy	.
.	.	.	.	.	.	4g 4B/	.	.	.	.	.	.	.	.	.	.	.	.	.	.	.	.	.	.	4B/)	4g/)	.	.	.	.	.	.	.	.	.	.	.
=81	=81	=81	=81	=81	=81	=81	=81	=81	=81	=81	=81	=81	=81	=81	=81	=81	=81	=81	=81	=81	=81	=81	=81	=81	=81	=81	=81	=81	=81	=81	=81	=81	=81	=81	=81	=81	=81
2.r	.	2.r	2.r	.	[>2.G\	8aL 8c/	2.ryy	.	.	2.ryy	.	2.r	.	.	2.ryy	.	.	2.ryy	.	.	[>2.G\	.	4r	.	(<8c/L	(<8a/L	.	2.ryy	.	2.ryy	.	2.ryy	.	2.ryy	.	2.ryy	.
.	.	.	.	.	.	8g#XJ 8B/	.	.	.	.	.	.	.	.	.	.	.	.	.	.	.	.	.	.	8B/J	8g#X/J	.	.	.	.	.	.	.	.	.	.	.
.	.	.	.	.	.	4a 4c/	.	.	.	.	.	.	.	.	.	.	.	.	.	.	.	.	4r	.	4c/	4a/	.	.	.	.	.	.	.	.	.	.	.
.	.	.	.	.	.	4f# 4d 4c/	.	.	.	.	.	.	.	.	.	.	.	.	.	.	.	.	4d\	.	4c/)	4f#/)	.	.	.	.	.	.	.	.	.	.	.
=82	=82	=82	=82	=82	=82	=82	=82	=82	=82	=82	=82	=82	=82	=82	=82	=82	=82	=82	=82	=82	=82	=82	=82	=82	=82	=82	=82	=82	=82	=82	=82	=82	=82	=82	=82	=82	=82
*	*	*	*	*	*	*	*	*	*	*	*	*	*	*	*	*	*	*	*	*	*^	*	*	*	*	*	*	*	*	*	*	*	*	*	*	*	*
2.r	.	2.r	2.r	.	2G\]	2g 2d 2B/	2.ryy	.	.	2.ryy	.	2.r	.	.	2.ryy	.	.	2.ryy	.	.	2G\]	2ryy	.	2d 2G/	.	2B/	2g/	.	2.ryy	.	2.ryy	.	2.ryy	.	2.ryy	.	2.ryy	.
*	*	*	*	*	*	*clefF4	*	*	*	*	*	*	*	*	*	*	*	*	*	*	*	*	*	*	*	*	*	*	*	*	*	*	*	*	*	*	*	*
.	.	.	.	.	4Fn 4GG/	4B\	.	.	.	.	.	.	.	.	.	.	.	.	.	.	4Fn/	4GG\	.	4B/	.	4r	4r	.	.	.	.	.	.	.	.	.	.	.
=83	=83	=83	=83	=83	=83	=83	=83	=83	=83	=83	=83	=83	=83	=83	=83	=83	=83	=83	=83	=83	=83	=83	=83	=83	=83	=83	=83	=83	=83	=83	=83	=83	=83	=83	=83	=83	=83	=83
*	*	*	*	*	*^	*	*	*	*	*	*	*	*	*	*	*	*	*	*	*	*	*	*	*	*	*	*	*	*	*	*	*	*	*	*	*	*	*
2.r	.	2.r	2.r	.	4E/	[<2.GG\	(>4c\	2.ryy	.	.	2.ryy	.	2.r	.	.	2.ryy	.	.	2.ryy	.	.	(>4E/	2.GG\	.	(>4c/	.	2.ryy	2.r	.	2.ryy	.	2.ryy	.	2.ryy	.	2.ryy	.	2.ryy	.
.	.	.	.	.	4D/	.	4B\	.	.	.	.	.	.	.	.	.	.	.	.	.	.	4D/	.	.	4B/	.	.	.	.	.	.	.	.	.	.	.	.	.	.
.	.	.	.	.	4C#X/	.	4A#X\	.	.	.	.	.	.	.	.	.	.	.	.	.	.	4C#X/)	.	.	4A#X/)	.	.	.	.	.	.	.	.	.	.	.	.	.	.
=84	=84	=84	=84	=84	=84	=84	=84	=84	=84	=84	=84	=84	=84	=84	=84	=84	=84	=84	=84	=84	=84	=84	=84	=84	=84	=84	=84	=84	=84	=84	=84	=84	=84	=84	=84	=84	=84	=84	=84
2.r	.	2.r	2.r	.	2D/	2.GG\]	2B\)	2.ryy	.	.	2.ryy	.	2.r	.	.	2.ryy	.	.	2.ryy	.	.	(>2D/	2.GG\	.	(>2B/	.	2.ryy	2.r	.	2.ryy	.	2.ryy	.	2.ryy	.	2.ryy	.	2.ryy	.
.	.	.	.	.	4BB/	.	4G\	.	.	.	.	.	.	.	.	.	.	.	.	.	.	4BB/)	.	.	4G/)	.	.	.	.	.	.	.	.	.	.	.	.	.	.
!!LO:PB:g=original
=85	=85	=85	=85	=85	=85	=85	=85	=85	=85	=85	=85	=85	=85	=85	=85	=85	=85	=85	=85	=85	=85	=85	=85	=85	=85	=85	=85	=85	=85	=85	=85	=85	=85	=85	=85	=85	=85	=85	=85
2.r	.	2.r	2.r	.	8C/L	2.GG\	8A\L	2.ryy	.	.	2.ryy	.	2.ryy	.	.	2.ryy	.	.	2.ryy	.	.	8C/L	2.GG\	.	(>8A/L	.	2.r	2.r	.	2.ryy	.	2.ryy	.	2.ryy	.	2.ryy	.	2.ryy	.
.	.	.	.	.	8BB/J	.	8G#X\J	.	.	.	.	.	.	.	.	.	.	.	.	.	.	8BB/J	.	.	8G#X/J	.	.	.	.	.	.	.	.	.	.	.	.	.	.
.	.	.	.	.	4C/	.	4A\	.	.	.	.	.	.	.	.	.	.	.	.	.	.	4C/	.	.	4A/	.	.	.	.	.	.	.	.	.	.	.	.	.	.
.	.	.	.	.	4D 4C/	.	4F#\	.	.	.	.	.	.	.	.	.	.	.	.	.	.	4D 4C/	.	.	4F#/)	.	.	.	.	.	.	.	.	.	.	.	.	.	.
=86	=86	=86	=86	=86	=86	=86	=86	=86	=86	=86	=86	=86	=86	=86	=86	=86	=86	=86	=86	=86	=86	=86	=86	=86	=86	=86	=86	=86	=86	=86	=86	=86	=86	=86	=86	=86	=86	=86	=86
2.r;>	.	2.r;>	2.r;>	.	2.D 2.BB;>/	2.GG\	2.G;>\	2.ryy	.	.	2.ryy	.	2.ryy	.	.	2.ryy	.	.	2.ryy	.	.	2.D 2.BB/	2.GG;>\	.	2.G;>/	.	2.r;>	2.r;>	.	2.ryy	.	2.ryy	.	2.ryy	.	2.ryy	.	2.ryy	.
*	*	*	*	*	*v	*v	*	*	*	*	*	*	*	*	*	*	*	*	*	*	*	*v	*v	*	*	*	*	*	*	*	*	*	*	*	*	*	*	*	*
==	==	==	==	==	==	==	==	==	==	==	==	==	==	==	==	==	==	==	==	==	==	==	==	==	==	==	==	==	==	==	==	==	==	==	==	==	==
*-	*-	*-	*-	*-	*-	*-	*-	*-	*-	*-	*-	*-	*-	*-	*-	*-	*-	*-	*-	*-	*-	*-	*-	*-	*-	*-	*-	*-	*-	*-	*-	*-	*-	*-	*-	*-	*-
!!!system-decoration: (s1,s2,s3,s4,s5,s6,s7,s8,s9,s10,s11){(s12,s13,s14)}{(s15,s16)}{(s17,s18,s19)}
!!!RDF**kern: > = above
!!!RDF**kern: < = below
!!!EED: Antoni Szymański
!!!EEV: 2021-04-29
!!!ENC: Kamil Watkowski
!!!END: 2021-04-10
!!!YEC: Copyright 2022 Narodowy Instytut Fryderyka Chopina (https://polishscores.org)
!!!YEM: Licence CC BY 4.0 (https://creativecommons.org/licenses/by/4.0)
